%
(Header)
(Generated by gcodetools from Inkscape.)
(Using default header. To add your own header create file "header" in the output dir.)
M3
(Header end.)
G21 (All units in mm)

(Start cutting path id: path85538)
(Change tool to Cylindrical cutter)

G00 Z5.000000
G00 X127.921590 Y106.615000

G01 Z-1.000000 F100.0(Penetrate)
G03 X128.238525 Y110.765950 Z-1.000000 I-30.972334 J4.452385 F400.000000
G03 X127.562864 Y113.006269 Z-1.000000 I-3.926566 J0.037828
G03 X125.843093 Y114.234354 Z-1.000000 I-2.515262 J-1.704093
G03 X120.470630 Y114.796100 Z-1.000000 I-4.418543 J-16.286729
G03 X107.426911 Y113.739782 Z-1.000000 I15.136310 J-267.969495
G03 X87.390800 Y110.387120 Z-1.000000 I17.607046 J-166.768903
G03 X86.897029 Y107.595446 Z-1.000000 I24.664302 J-5.801946
G03 X86.727975 Y104.759660 Z-1.000000 I23.699822 J-2.835786
G03 X88.563664 Y95.500622 Z-1.000000 I24.268688 J-0.000000
G03 X94.263041 Y86.501560 Z-1.000000 I28.579607 J11.796001
G03 X101.827368 Y80.078326 Z-1.000000 I28.574618 J25.985235
G03 X112.496250 Y74.681930 Z-1.000000 I30.479986 J47.015516
G03 X116.606854 Y73.302283 Z-1.000000 I20.638931 J54.679382
G03 X120.983510 Y72.160980 Z-1.000000 I20.226927 J68.603549
G03 X121.935986 Y76.167465 Z-1.000000 I-347.060680 J84.624451
G03 X127.790470 Y105.747630 Z-1.000000 I-455.622731 J105.545945
G03 X127.867320 Y106.239951 Z-1.000000 I-203.359084 J31.995850
G03 X127.921590 Y106.615000 Z-1.000000 I-18.852188 J2.919398
G00 Z5.000000

(End cutting path id: path85538)


(Start cutting path id: polygon85528)
(Change tool to Cylindrical cutter)

G00 Z5.000000
G00 X111.634772 Y53.102423

G01 Z-1.000000 F100.0(Penetrate)
G01 X125.757695 Y53.102423 Z-1.000000 F400.000000
G01 X138.819435 Y18.820874 Z-1.000000
G01 X125.654786 Y18.820874 Z-1.000000
G01 X118.727217 Y39.251611 Z-1.000000
G01 X111.884853 Y18.820874 Z-1.000000
G01 X98.881207 Y18.820874 Z-1.000000
G01 X111.634772 Y53.102423 Z-1.000000
G00 Z5.000000

(End cutting path id: polygon85528)


(Start cutting path id: polygon85526)
(Change tool to Cylindrical cutter)

G00 Z5.000000
G00 X92.947322 Y43.029361

G01 Z-1.000000 F100.0(Penetrate)
G01 X92.947322 Y18.820874 Z-1.000000 F400.000000
G01 X79.406445 Y18.820874 Z-1.000000
G01 X79.406445 Y43.029361 Z-1.000000
G01 X69.773356 Y43.029361 Z-1.000000
G01 X69.773356 Y53.102423 Z-1.000000
G01 X102.269469 Y53.102423 Z-1.000000
G01 X102.269469 Y43.029361 Z-1.000000
G01 X92.947322 Y43.029361 Z-1.000000
G00 Z5.000000

(End cutting path id: polygon85526)


(Start cutting path id: polygon85530)
(Change tool to Cylindrical cutter)

G00 Z5.000000
G00 X158.887862 Y43.029361

G01 Z-1.000000 F100.0(Penetrate)
G01 X158.887862 Y18.820874 Z-1.000000 F400.000000
G01 X145.347538 Y18.820874 Z-1.000000
G01 X145.347538 Y43.029361 Z-1.000000
G01 X135.712790 Y43.029361 Z-1.000000
G01 X135.712790 Y53.102423 Z-1.000000
G01 X168.207243 Y53.102423 Z-1.000000
G01 X168.207243 Y43.029361 Z-1.000000
G01 X158.887862 Y43.029361 Z-1.000000
G00 Z5.000000

(End cutting path id: polygon85530)


(Start cutting path id: polygon85532)
(Change tool to Cylindrical cutter)

G00 Z5.000000
G00 X177.579738 Y53.102423

G01 Z-1.000000 F100.0(Penetrate)
G01 X191.698235 Y53.102423 Z-1.000000 F400.000000
G01 X204.754442 Y18.820874 Z-1.000000
G01 X191.595879 Y18.820874 Z-1.000000
G01 X184.669970 Y39.251611 Z-1.000000
G01 X177.825393 Y18.820874 Z-1.000000
G01 X164.821747 Y18.820874 Z-1.000000
G01 X177.579738 Y53.102423 Z-1.000000
G00 Z5.000000

(End cutting path id: polygon85532)


(Start cutting path id: path85536)
(Change tool to Cylindrical cutter)

G00 Z5.000000
G00 X187.223390 Y110.387680

G01 Z-1.000000 F100.0(Penetrate)
G03 X167.192594 Y113.738984 Z-1.000000 I-37.635406 J-163.409574 F400.000000
G03 X154.154640 Y114.794970 Z-1.000000 I-28.187870 J-267.011523
G03 X148.781373 Y114.233769 Z-1.000000 I-0.955440 J-16.856070
G03 X147.060456 Y113.005702 Z-1.000000 I0.795681 J-2.934817
G03 X146.383423 Y110.765112 Z-1.000000 I3.251290 J-2.205017
G03 X146.698130 Y106.613310 Z-1.000000 I31.280982 J0.283271
G02 X146.779333 Y106.088441 Z-1.000000 I-68.739765 J-10.903492
G03 X146.895100 Y105.333400 Z-1.000000 I153.362669 J23.128028
G03 X152.620537 Y76.437219 Z-1.000000 I463.023688 J76.727365
G03 X153.628470 Y72.184080 Z-1.000000 I373.539423 J86.277519
G03 X179.619884 Y85.927659 Z-1.000000 I-13.091959 J56.207942
G03 X187.881240 Y104.759100 Z-1.000000 I-17.332091 J18.831441
G03 X187.715546 Y107.595443 Z-1.000000 I-23.927845 J0.025189
G03 X187.223390 Y110.387680 Z-1.000000 I-24.838189 J-2.938454
G00 Z5.000000

(End cutting path id: path85536)


(Start cutting path id: path85534)
(Change tool to Cylindrical cutter)

G00 Z5.000000
G00 X185.149720 Y116.072060

G01 Z-1.000000 F100.0(Penetrate)
G03 X183.090567 Y119.563313 Z-1.000000 I-25.891930 J-12.918271 F400.000000
G03 X180.350590 Y123.016630 Z-1.000000 I-26.820703 J-18.466793
G03 X172.785034 Y129.440384 Z-1.000000 I-28.593038 J-26.008331
G03 X162.121810 Y134.834020 Z-1.000000 I-30.456446 J-46.975002
G03 X150.420535 Y138.037901 Z-1.000000 I-22.865600 J-60.540430
G03 X137.306820 Y139.177610 Z-1.000000 I-13.113715 J-74.874631
G03 X124.192162 Y138.037735 Z-1.000000 I0.000000 J-76.014309
G03 X112.495710 Y134.834020 Z-1.000000 I11.151432 J-63.665947
G03 X101.826823 Y129.439233 Z-1.000000 I19.785216 J-52.374758
G03 X94.262487 Y123.016630 Z-1.000000 I21.009132 J-32.409702
G03 X91.521461 Y119.562828 Z-1.000000 I24.184877 J-22.008314
G03 X89.458945 Y116.068120 Z-1.000000 I23.818850 J-16.413457
G02 X105.732425 Y119.480189 Z-1.000000 I57.112787 J-231.879688
G02 X131.203080 Y121.952010 Z-1.000000 I29.158212 J-167.992245
G02 X133.206951 Y121.552847 Z-1.000000 I0.103518 J-4.709795
G02 X134.389400 Y120.628140 Z-1.000000 I-1.231169 J-2.792701
G02 X135.244593 Y117.916354 Z-1.000000 I-3.243176 J-2.513514
G03 X135.129120 Y114.097240 Z-1.000000 I105.348417 J-5.096572
G01 X134.690930 Y70.390180 Z-1.000000
G03 X135.994655 Y70.354276 Z-1.000000 I3.024980 J86.152427
G03 X137.306260 Y70.341180 Z-1.000000 I1.311605 J65.675941
G03 X138.628275 Y70.352507 Z-1.000000 I0.000000 J77.156245
G03 X139.933220 Y70.385680 Z-1.000000 I-1.350542 J78.809616
G01 X139.494480 Y114.097260 Z-1.000000
G03 X139.375720 Y117.915231 Z-1.000000 I-108.081424 J-1.451083
G02 X140.233100 Y120.628160 Z-1.000000 I4.089324 J0.199577
G02 X141.415378 Y121.552046 Z-1.000000 I2.420668 J-1.879267
G02 X143.417200 Y121.952020 Z-1.000000 I1.900326 J-4.301477
G02 X168.879161 Y119.483150 Z-1.000000 I-3.652086 J-170.196333
G02 X185.149720 Y116.072080 Z-1.000000 I-40.873149 J-235.472234
G00 Z5.000000

(End cutting path id: path85534)


(Footer)
M5
G00 X0.0000 Y0.0000
M2
(Using default footer. To add your own footer create file "footer" in the output dir.)
(end)
%