%
(Header)
(Generated by gcodetools from Inkscape.)
(Using default header. To add your own header create file "header" in the output dir.)
M3
(Header end.)
G21 (All units in mm)

(Start cutting path id: path119714)
(Change tool to Cylindrical cutter)

G00 Z5.000000
G00 X187.332311 Y115.814777

G01 Z-1.000000 F100.0(Penetrate)
G01 X184.997804 Y115.814777 Z-1.000000 F400.000000
G01 X183.382458 Y124.565928 Z-1.000000
G01 X176.257225 Y124.565928 Z-1.000000
G01 X174.641878 Y115.814777 Z-1.000000
G01 X172.418010 Y115.814777 Z-1.000000
G01 X178.414707 Y147.213481 Z-1.000000
G01 X181.335609 Y147.213481 Z-1.000000
G01 X187.332311 Y115.814777 Z-1.000000
G00 Z5.000000

(End cutting path id: path119714)


(Start cutting path id: path119714)
(Change tool to Cylindrical cutter)

G00 Z5.000000
G00 X182.707551 Y128.150734

G01 Z-1.000000 F100.0(Penetrate)
G01 X179.819839 Y143.565418 Z-1.000000 F400.000000
G01 X176.921069 Y128.150734 Z-1.000000
G01 X182.707551 Y128.150734 Z-1.000000
G00 Z5.000000

(End cutting path id: path119714)


(Start cutting path id: path119712)
(Change tool to Cylindrical cutter)

G00 Z5.000000
G00 X173.458024 Y143.502150

G01 Z-1.000000 F100.0(Penetrate)
G01 X167.571967 Y143.502150 Z-1.000000 F400.000000
G01 X167.571967 Y115.814777 Z-1.000000
G01 X165.381289 Y115.814777 Z-1.000000
G01 X165.381289 Y143.502150 Z-1.000000
G01 X159.495231 Y143.502150 Z-1.000000
G01 X159.495231 Y147.213481 Z-1.000000
G01 X173.458024 Y147.213481 Z-1.000000
G01 X173.458024 Y143.502150 Z-1.000000
G00 Z5.000000

(End cutting path id: path119712)


(Start cutting path id: path119710)
(Change tool to Cylindrical cutter)

G00 Z5.000000
G00 X158.820324 Y137.724285

G01 Z-1.000000 F100.0(Penetrate)
G02 X158.716956 Y135.647703 Z-1.000000 I-20.910155 J0.000000 F400.000000
G02 X158.433085 Y133.844256 Z-1.000000 I-16.042359 J1.601077
G02 X157.951961 Y132.110804 Z-1.000000 I-14.322164 J3.041659
G02 X157.370939 Y130.765541 Z-1.000000 I-9.183569 J3.168300
G02 X156.376200 Y129.266825 Z-1.000000 I-7.763483 J4.073359
G02 X155.357285 Y128.319431 Z-1.000000 I-4.049431 J3.333518
G02 X154.124552 Y127.746147 Z-1.000000 I-2.301211 J3.336278
G02 X152.425319 Y127.518129 Z-1.000000 I-1.699233 J6.217495
G01 X150.234641 Y127.518129 Z-1.000000
G01 X150.234641 Y115.814777 Z-1.000000
G01 X148.043963 Y115.814777 Z-1.000000
G01 X148.043963 Y147.213481 Z-1.000000
G01 X152.513832 Y147.213481 Z-1.000000
G02 X153.965326 Y147.074617 Z-1.000000 I0.000000 J-7.655394
G02 X155.025363 Y146.728487 Z-1.000000 I-0.848923 J-4.396130
G02 X155.964860 Y146.150200 Z-1.000000 I-1.773524 J-3.933614
G02 X156.850929 Y145.252387 Z-1.000000 I-3.546978 J-4.386722
G02 X157.646112 Y143.976584 Z-1.000000 I-5.565687 J-4.354695
G02 X158.300314 Y142.258014 Z-1.000000 I-9.517319 J-4.606728
G02 X158.664888 Y140.443514 Z-1.000000 I-10.582128 J-3.070065
G02 X158.820324 Y137.724285 Z-1.000000 I-23.707731 J-2.719230
G01 X158.820324 Y137.724285 Z-1.000000
G00 Z5.000000

(End cutting path id: path119710)


(Start cutting path id: path119710)
(Change tool to Cylindrical cutter)

G00 Z5.000000
G00 X156.541133 Y137.618802

G01 Z-1.000000 F100.0(Penetrate)
G03 X156.456092 Y139.232093 Z-1.000000 I-15.345220 J0.000000 F400.000000
G03 X156.242407 Y140.444466 Z-1.000000 I-8.861105 J-0.936787
G03 X155.837778 Y141.594007 Z-1.000000 I-6.243806 J-1.551786
G03 X155.335158 Y142.405572 Z-1.000000 I-3.582782 J-1.657470
G03 X154.744484 Y142.978272 Z-1.000000 I-2.698745 J-2.192484
G03 X154.118114 Y143.333399 Z-1.000000 I-1.614665 J-2.117978
G03 X153.424947 Y143.541316 Z-1.000000 I-1.202012 J-2.747919
G03 X152.403193 Y143.628621 Z-1.000000 I-1.021754 J-5.935287
G01 X150.234641 Y143.628621 Z-1.000000
G01 X150.234641 Y131.081795 Z-1.000000
G01 X152.082334 Y131.081795 Z-1.000000
G03 X153.377123 Y131.213302 Z-1.000000 I-0.000000 J6.439867
G03 X154.239816 Y131.524618 Z-1.000000 I-0.643015 J3.132845
G03 X154.962490 Y132.092858 Z-1.000000 I-1.438656 J2.573303
G03 X155.589632 Y132.979632 Z-1.000000 I-3.016807 J2.798688
G03 X156.031843 Y134.018481 Z-1.000000 I-6.966434 J3.578978
G03 X156.319856 Y135.109434 Z-1.000000 I-7.399176 J2.536882
G03 X156.480152 Y136.233023 Z-1.000000 I-10.360731 J2.051340
G03 X156.541133 Y137.618802 Z-1.000000 I-15.715222 J1.385778
G01 X156.541133 Y137.618802 Z-1.000000
G00 Z5.000000

(End cutting path id: path119710)


(Start cutting path id: path119708)
(Change tool to Cylindrical cutter)

G00 Z5.000000
G00 X143.861764 Y128.424871

G01 Z-1.000000 F100.0(Penetrate)
G02 X143.748183 Y125.017573 Z-1.000000 I-51.164165 J0.000000 F400.000000
G02 X143.463462 Y122.457223 Z-1.000000 I-29.149757 J1.945558
G02 X142.901141 Y119.984806 Z-1.000000 I-17.474193 J2.674139
G02 X142.180032 Y118.239801 Z-1.000000 I-9.377978 J2.853870
G02 X141.182139 Y116.771078 Z-1.000000 I-7.260059 J3.859339
G02 X140.188511 Y115.899130 Z-1.000000 I-3.470952 J2.953203
G02 X138.990185 Y115.359799 Z-1.000000 I-2.361868 J3.646844
G02 X137.533145 Y115.161075 Z-1.000000 I-1.457040 J5.242116
G02 X136.048727 Y115.371282 Z-1.000000 I0.000000 J5.346369
G02 X134.833521 Y115.941302 Z-1.000000 I1.189847 J4.116929
G02 X133.826170 Y116.848801 Z-1.000000 I2.776851 J4.095228
G02 X132.897316 Y118.239801 Z-1.000000 I5.759024 J4.851275
G02 X132.165422 Y120.023347 Z-1.000000 I9.654328 J5.003681
G02 X131.602829 Y122.415040 Z-1.000000 I16.869388 J5.230169
G02 X131.329990 Y124.870150 Z-1.000000 I26.340210 J4.169926
G02 X131.215584 Y128.424871 Z-1.000000 I55.167403 J3.554720
G01 X131.215584 Y147.213481 Z-1.000000
G01 X133.406262 Y147.213481 Z-1.000000
G01 X133.406262 Y128.214002 Z-1.000000
G03 X133.462235 Y125.665808 Z-1.000000 I58.032217 J-0.000000
G03 X133.583287 Y124.186363 Z-1.000000 I19.663950 J0.864278
G03 X133.844260 Y122.727767 Z-1.000000 I14.614839 J1.862252
G03 X134.202872 Y121.508299 Z-1.000000 I10.562734 J2.443748
G03 X134.825975 Y120.232309 Z-1.000000 I5.933655 J2.107442
G03 X135.519492 Y119.441765 Z-1.000000 I2.912641 J1.855687
G03 X136.427230 Y118.931593 Z-1.000000 I1.861274 J2.249083
G03 X137.533145 Y118.745892 Z-1.000000 I1.105915 J3.200196
G03 X138.652154 Y118.928398 Z-1.000000 I-0.000000 J3.521763
G03 X139.546793 Y119.420679 Z-1.000000 I-0.907681 J2.708631
G03 X140.240084 Y120.211610 Z-1.000000 I-2.213619 J2.639666
G03 X140.874476 Y121.508299 Z-1.000000 I-5.475899 J3.482558
G03 X141.227435 Y122.728617 Z-1.000000 I-9.478463 J3.402710
G03 X141.482998 Y124.249620 Z-1.000000 I-14.492035 J3.216960
G03 X141.615186 Y125.813431 Z-1.000000 I-21.871902 J2.636306
G03 X141.671086 Y128.108563 Z-1.000000 I-47.088567 J2.295131
G01 X141.671086 Y147.213481 Z-1.000000
G01 X143.861764 Y147.213481 Z-1.000000
G01 X143.861764 Y128.424871 Z-1.000000
G00 Z5.000000

(End cutting path id: path119708)


(Start cutting path id: path119706)
(Change tool to Cylindrical cutter)

G00 Z5.000000
G00 X127.630844 Y118.134361

G01 Z-1.000000 F100.0(Penetrate)
G02 X126.225207 Y117.033083 Z-1.000000 I-10.859860 J12.413477 F400.000000
G02 X124.676746 Y116.067827 Z-1.000000 I-9.871762 J14.111623
G02 X123.033188 Y115.401562 Z-1.000000 I-3.782342 J6.970054
G02 X121.589883 Y115.203257 Z-1.000000 I-1.443305 J5.153180
G02 X119.739920 Y115.463286 Z-1.000000 I0.000000 J6.710742
G02 X118.060464 Y116.215438 Z-1.000000 I1.795009 J6.259096
G02 X116.646242 Y117.407639 Z-1.000000 I3.598458 J5.703488
G02 X115.327650 Y119.251982 Z-1.000000 I7.531095 J6.777800
G02 X114.381859 Y121.369080 Z-1.000000 I11.502119 J6.408257
G02 X113.568469 Y124.355060 Z-1.000000 I22.174149 J7.644079
G02 X113.124956 Y127.451316 Z-1.000000 I27.236548 J5.481301
G02 X112.948884 Y131.545768 Z-1.000000 I47.518894 J4.094452
G02 X113.654941 Y138.898385 Z-1.000000 I38.636755 J-0.000000
G02 X115.250201 Y143.417807 Z-1.000000 I15.969154 J-3.095516
G02 X118.197539 Y146.727918 Z-1.000000 I8.227329 J-4.358435
G02 X121.589883 Y147.782840 Z-1.000000 I3.392343 J-4.926968
G02 X122.962010 Y147.628319 Z-1.000000 I0.000000 J-6.169418
G02 X124.455468 Y147.129138 Z-1.000000 I-1.784489 J-7.822537
G02 X125.842158 Y146.364767 Z-1.000000 I-3.203689 J-7.452019
G02 X127.619780 Y144.957164 Z-1.000000 I-9.413171 J-13.713891
G01 X127.619780 Y140.001698 Z-1.000000
G01 X127.420624 Y140.001698 Z-1.000000
G03 X127.065910 Y140.499178 Z-1.000000 I-10.627495 J-7.202417
G03 X126.424863 Y141.330187 Z-1.000000 I-30.311743 J-22.719975
G03 X125.741087 Y142.122930 Z-1.000000 I-10.049216 J-7.976626
G03 X125.141439 Y142.700848 Z-1.000000 I-5.926647 J-5.549440
G03 X124.337006 Y143.288905 Z-1.000000 I-4.218896 J-4.927000
G03 X123.404385 Y143.776286 Z-1.000000 I-3.807850 J-6.150458
G03 X122.415480 Y144.098870 Z-1.000000 I-1.880310 J-4.087162
G03 X121.213707 Y144.219120 Z-1.000000 I-1.201773 J-5.945122
G03 X118.939177 Y143.441008 Z-1.000000 I-0.000000 J-3.713442
G03 X116.832357 Y140.824096 Z-1.000000 I4.442407 J-5.733022
G03 X115.720989 Y137.338937 Z-1.000000 I12.258586 J-5.828868
G03 X115.228074 Y131.672283 Z-1.000000 I32.326074 J-5.666654
G03 X115.753114 Y125.701023 Z-1.000000 I34.217968 J0.000000
G03 X116.909806 Y122.183086 Z-1.000000 I12.859385 J2.279016
G03 X119.081353 Y119.600587 Z-1.000000 I6.437201 J3.208609
G03 X121.490307 Y118.809149 Z-1.000000 I2.408954 J3.270428
G03 X122.534390 Y118.907250 Z-1.000000 I0.000000 J5.605105
G03 X123.603536 Y119.209800 Z-1.000000 I-1.172134 J6.182409
G03 X124.624517 Y119.683041 Z-1.000000 I-2.710847 J7.186399
G03 X125.462292 Y120.243078 Z-1.000000 I-2.992595 J5.383357
G01 X125.462292 Y127.939866 Z-1.000000
G01 X121.047746 Y127.939866 Z-1.000000
G01 X121.047746 Y131.609026 Z-1.000000
G01 X127.630844 Y131.609026 Z-1.000000
G01 X127.630844 Y118.134361 Z-1.000000
G00 Z5.000000

(End cutting path id: path119706)


(Start cutting path id: path119704)
(Change tool to Cylindrical cutter)

G00 Z5.000000
G00 X103.732553 Y115.814777

G01 Z-1.000000 F100.0(Penetrate)
G01 X93.310241 Y115.814777 Z-1.000000 F400.000000
G01 X93.310241 Y147.213481 Z-1.000000
G01 X95.500920 Y147.213481 Z-1.000000
G01 X95.500920 Y119.526108 Z-1.000000
G01 X103.732553 Y119.526108 Z-1.000000
G01 X103.732553 Y115.814777 Z-1.000000
G00 Z5.000000

(End cutting path id: path119704)


(Start cutting path id: path119702)
(Change tool to Cylindrical cutter)

G00 Z5.000000
G00 X89.581666 Y115.814777

G01 Z-1.000000 F100.0(Penetrate)
G01 X83.076018 Y115.814777 Z-1.000000 F400.000000
G01 X83.076018 Y119.020017 Z-1.000000
G01 X85.233506 Y119.020017 Z-1.000000
G01 X85.233506 Y144.008240 Z-1.000000
G01 X83.076018 Y144.008240 Z-1.000000
G01 X83.076018 Y147.213481 Z-1.000000
G01 X89.581666 Y147.213481 Z-1.000000
G01 X89.581666 Y144.008240 Z-1.000000
G01 X87.424178 Y144.008240 Z-1.000000
G01 X87.424178 Y119.020017 Z-1.000000
G01 X89.581666 Y119.020017 Z-1.000000
G01 X89.581666 Y115.814777 Z-1.000000
G00 Z5.000000

(End cutting path id: path119702)


(Start cutting path id: path119700)
(Change tool to Cylindrical cutter)

G00 Z5.000000
G00 X79.347443 Y115.814777

G01 Z-1.000000 F100.0(Penetrate)
G01 X77.156764 Y115.814777 Z-1.000000 F400.000000
G01 X77.156764 Y131.187278 Z-1.000000
G01 X68.936200 Y131.187278 Z-1.000000
G01 X68.936200 Y115.814777 Z-1.000000
G01 X66.745522 Y115.814777 Z-1.000000
G01 X66.745522 Y147.213481 Z-1.000000
G01 X68.936200 Y147.213481 Z-1.000000
G01 X68.936200 Y134.898609 Z-1.000000
G01 X77.156764 Y134.898609 Z-1.000000
G01 X77.156764 Y147.213481 Z-1.000000
G01 X79.347443 Y147.213481 Z-1.000000
G01 X79.347443 Y115.814777 Z-1.000000
G00 Z5.000000

(End cutting path id: path119700)


(Start cutting path id: path119698)
(Change tool to Cylindrical cutter)

G00 Z5.000000
G00 X64.289307 Y115.814777

G01 Z-1.000000 F100.0(Penetrate)
G01 X61.445854 Y115.814777 Z-1.000000 F400.000000
G01 X54.929142 Y129.795531 Z-1.000000
G01 X53.291669 Y126.463765 Z-1.000000
G01 X53.291669 Y115.814777 Z-1.000000
G01 X51.100991 Y115.814777 Z-1.000000
G01 X51.100991 Y147.213481 Z-1.000000
G01 X53.291669 Y147.213481 Z-1.000000
G01 X53.291669 Y130.828798 Z-1.000000
G01 X61.290956 Y147.213481 Z-1.000000
G01 X63.946322 Y147.213481 Z-1.000000
G01 X56.588747 Y132.452510 Z-1.000000
G01 X64.289307 Y115.814777 Z-1.000000
G00 Z5.000000

(End cutting path id: path119698)


(Start cutting path id: path119696)
(Change tool to Cylindrical cutter)

G00 Z5.000000
G00 X47.317096 Y115.814777

G01 Z-1.000000 F100.0(Penetrate)
G01 X40.811450 Y115.814777 Z-1.000000 F400.000000
G01 X40.811450 Y119.020017 Z-1.000000
G01 X42.968935 Y119.020017 Z-1.000000
G01 X42.968935 Y144.008240 Z-1.000000
G01 X40.811450 Y144.008240 Z-1.000000
G01 X40.811450 Y147.213481 Z-1.000000
G01 X47.317096 Y147.213481 Z-1.000000
G01 X47.317096 Y144.008240 Z-1.000000
G01 X45.159611 Y144.008240 Z-1.000000
G01 X45.159611 Y119.020017 Z-1.000000
G01 X47.317096 Y119.020017 Z-1.000000
G01 X47.317096 Y115.814777 Z-1.000000
G00 Z5.000000

(End cutting path id: path119696)


(Start cutting path id: path119694)
(Change tool to Cylindrical cutter)

G00 Z5.000000
G00 X37.127130 Y115.814777

G01 Z-1.000000 F100.0(Penetrate)
G01 X34.416445 Y115.814777 Z-1.000000 F400.000000
G01 X26.605244 Y143.902812 Z-1.000000
G01 X26.605244 Y115.814777 Z-1.000000
G01 X24.558400 Y115.814777 Z-1.000000
G01 X24.558400 Y147.213481 Z-1.000000
G01 X27.955055 Y147.213481 Z-1.000000
G01 X35.080286 Y121.571556 Z-1.000000
G01 X35.080286 Y147.213481 Z-1.000000
G01 X37.127130 Y147.213481 Z-1.000000
G01 X37.127130 Y115.814777 Z-1.000000
G00 Z5.000000

(End cutting path id: path119694)


(Footer)
M5
G00 X0.0000 Y0.0000
M2
(Using default footer. To add your own footer create file "footer" in the output dir.)
(end)
%