%
(Header)
(Generated by gcodetools from Inkscape.)
(Using default header. To add your own header create file "header" in the output dir.)
M3
(Header end.)
G21 (All units in mm)

(Start cutting path id: path323)
(Change tool to Cylindrical cutter)

G00 Z4.000000
G00 X79.017950 Y19.693040

G01 Z-1.000000 F100.0(Penetrate)
G03 X78.875757 Y20.927431 Z-1.000000 I-15.329733 J-1.140487 F400.000000
G03 X75.605265 Y41.639985 Z-1.000000 I-6942.867872 J-1085.657630
G03 X72.464721 Y61.188981 Z-1.000000 I-8209.909635 J-1308.894271
G03 X70.755550 Y71.518150 Z-1.000000 I-1474.426088 J-238.667786
G03 X70.032819 Y75.446869 Z-1.000000 I-136.431091 J-23.067149
G03 X69.401586 Y78.366741 Z-1.000000 I-88.540341 J-17.612941
G03 X68.613957 Y81.327594 Z-1.000000 I-48.856569 J-11.411364
G03 X68.338660 Y81.865810 Z-1.000000 I-1.597666 J-0.477689
G02 X67.874189 Y82.998963 Z-1.000000 I1.846477 J1.418625
G02 X68.082000 Y83.943430 Z-1.000000 I1.441074 J0.178017
G03 X68.231313 Y84.358125 Z-1.000000 I-0.895817 J0.556772
G03 X68.187019 Y84.624133 Z-1.000000 I-0.451936 J0.061437
G03 X68.000112 Y84.811534 Z-1.000000 I-0.377195 J-0.189291
G03 X67.598310 Y84.907260 Z-1.000000 I-0.401802 J-0.795405
G02 X67.037355 Y85.265179 Z-1.000000 I0.000000 J0.618543
G02 X67.006850 Y86.180290 Z-1.000000 I1.062121 J0.493470
G03 X67.120710 Y86.748850 Z-1.000000 I-1.592888 J0.614674
G03 X67.073723 Y88.129461 Z-1.000000 I-11.319842 J0.305845
G03 X66.887715 Y89.486711 Z-1.000000 I-16.577097 J-1.580478
G03 X66.544660 Y91.028080 Z-1.000000 I-18.664032 J-3.345101
G02 X65.843756 Y94.634095 Z-1.000000 I25.864350 J6.898396
G02 X65.643860 Y98.296370 Z-1.000000 I26.481786 J3.282037
G03 X65.608294 Y100.245530 Z-1.000000 I-29.997911 J0.427533
G03 X65.516216 Y100.715523 Z-1.000000 I-1.681380 J-0.085388
G03 X65.408982 Y100.833949 Z-1.000000 I-0.193804 J-0.067725
G03 X65.301572 Y100.816286 Z-1.000000 I-0.040748 J-0.087621
G03 X65.191065 Y100.671203 Z-1.000000 I0.398342 J-0.418034
G03 X64.974910 Y100.210650 Z-1.000000 I4.189616 J-2.247353
G02 X64.442664 Y99.032600 Z-1.000000 I-15.336930 J6.219998
G02 X64.261558 Y98.914808 Z-1.000000 I-0.190906 J0.095398
G02 X64.082757 Y99.020797 Z-1.000000 I-0.008694 J0.189143
G02 X63.591270 Y100.147050 Z-1.000000 I12.782792 J6.248665
G03 X63.344262 Y100.713945 Z-1.000000 I-6.768371 J-2.611864
G03 X63.159433 Y100.989684 Z-1.000000 I-1.092683 J-0.532615
G03 X62.916151 Y101.141748 Z-1.000000 I-0.381474 J-0.339665
G03 X62.616936 Y101.133016 Z-1.000000 I-0.135649 J-0.482680
G03 X62.055944 Y100.791203 Z-1.000000 I0.502450 J-1.455899
G03 X60.314810 Y99.016300 Z-1.000000 I26.129135 J-27.373452
G02 X59.094831 Y97.885943 Z-1.000000 I-7.609061 J6.988828
G02 X56.860050 Y96.273110 Z-1.000000 I-20.505351 J26.058008
G02 X54.523243 Y94.844398 Z-1.000000 I-21.679433 J32.833575
G02 X52.225210 Y93.674880 Z-1.000000 I-14.682096 J26.006924
G03 X40.671842 Y88.308308 Z-1.000000 I363.189472 J-797.008200
G03 X35.096789 Y85.537635 Z-1.000000 I69.714806 J-147.272041
G03 X29.876818 Y82.563040 Z-1.000000 I36.902810 J-70.826358
G03 X26.635690 Y80.341920 Z-1.000000 I22.927769 J-36.932261
G02 X21.970423 Y77.150198 Z-1.000000 I-37.007346 J49.087375
G02 X20.903983 Y76.690411 Z-1.000000 I-2.086339 J3.372446
G02 X20.676763 Y76.683238 Z-1.000000 I-0.129028 J0.484817
G02 X20.621709 Y76.748169 Z-1.000000 I0.013406 J0.067172
G02 X20.652067 Y76.867213 Z-1.000000 I0.220295 J0.007215
G02 X20.904130 Y77.221973 Z-1.000000 I2.192460 J-1.290852
G02 X21.519319 Y77.862978 Z-1.000000 I5.514863 J-4.677047
G02 X23.371920 Y79.473310 Z-1.000000 I28.756386 J-31.211861
G03 X24.827273 Y80.738621 Z-1.000000 I-21.057218 J25.689513
G03 X25.724059 Y81.630510 Z-1.000000 I-11.291295 J12.250084
G03 X26.471443 Y82.586127 Z-1.000000 I-5.140198 J4.790202
G03 X26.451180 Y82.777550 Z-1.000000 I-0.127825 J0.083253
G03 X26.229534 Y82.846267 Z-1.000000 I-0.176507 J-0.177505
G03 X24.197719 Y82.380224 Z-1.000000 I4.257430 J-23.223258
G03 X22.226332 Y81.791050 Z-1.000000 I13.188470 J-47.721606
G03 X19.383780 Y80.824380 Z-1.000000 I27.677035 J-86.048697
G02 X13.952968 Y78.909749 Z-1.000000 I-178.001528 J496.238354
G02 X12.738956 Y78.615080 Z-1.000000 I-2.147290 J6.198495
G02 X12.187035 Y78.658613 Z-1.000000 I-0.179290 J1.247385
G02 X11.999490 Y78.822350 Z-1.000000 I0.090768 J0.293243
G02 X11.930517 Y79.129507 Z-1.000000 I0.670016 J0.311775
G02 X11.928570 Y79.752820 Z-1.000000 I99.760869 J0.623313
G02 X12.163132 Y80.238145 Z-1.000000 I0.619367 J0.000000
G02 X13.951708 Y81.372042 Z-1.000000 I6.255255 J-7.889279
G02 X15.978645 Y82.263249 Z-1.000000 I10.817795 J-21.853119
G02 X19.589290 Y83.545050 Z-1.000000 I24.941996 J-64.531686
G03 X27.176445 Y86.226883 Z-1.000000 I-47.125678 J145.396196
G03 X40.714290 Y91.643800 Z-1.000000 I-179.641487 J468.581483
G03 X48.750548 Y95.142321 Z-1.000000 I-109.209838 J261.838935
G03 X52.664786 Y97.129434 Z-1.000000 I-20.757240 J45.736568
G03 X56.208543 Y99.470849 Z-1.000000 I-14.830286 J26.298258
G03 X59.369670 Y102.164070 Z-1.000000 I-24.608770 J32.085941
G02 X61.621677 Y104.211617 Z-1.000000 I54.616791 J-57.808391
G02 X63.316369 Y105.627871 Z-1.000000 I32.161426 J-36.762346
G02 X65.135184 Y106.953738 Z-1.000000 I16.099044 J-20.174100
G02 X65.515620 Y107.068570 Z-1.000000 I0.380436 J-0.572775
G03 X65.819208 Y107.345870 Z-1.000000 I0.000000 J0.304834
G03 X65.775354 Y109.438130 Z-1.000000 I-9.373471 J0.850122
G03 X65.378633 Y111.701815 Z-1.000000 I-27.700258 J-3.687990
G03 X64.481204 Y115.408329 Z-1.000000 I-81.270492 J-17.715492
G03 X62.177845 Y123.068634 Z-1.000000 I-122.277600 J-32.590913
G03 X59.051900 Y131.319750 Z-1.000000 I-108.822151 J-36.509705
G03 X57.984535 Y133.501104 Z-1.000000 I-20.535677 J-8.696556
G03 X57.112411 Y134.782674 Z-1.000000 I-7.699638 J-4.302169
G03 X56.009090 Y135.806553 Z-1.000000 I-4.259324 J-3.483399
G03 X55.009970 Y136.262020 Z-1.000000 I-1.729134 J-2.469481
G02 X53.846282 Y136.929385 Z-1.000000 I0.595785 J2.387119
G02 X51.981466 Y139.262832 Z-1.000000 I10.725334 J10.483217
G02 X50.472726 Y141.906887 Z-1.000000 I22.849448 J14.790751
G02 X48.801081 Y145.608570 Z-1.000000 I47.330224 J23.602159
G02 X47.403281 Y149.413118 Z-1.000000 I55.769009 J22.648724
G02 X46.270670 Y153.324791 Z-1.000000 I52.878011 J17.430439
G02 X45.458504 Y157.314726 Z-1.000000 I44.446528 J11.124889
G02 X45.192090 Y160.437051 Z-1.000000 I21.743195 J3.427777
G02 X45.850070 Y164.848925 Z-1.000000 I13.833201 J0.191939
G02 X47.474365 Y168.162610 Z-1.000000 I12.096100 J-3.874300
G02 X48.626803 Y169.525911 Z-1.000000 I7.354482 J-5.048213
G02 X49.680207 Y170.276027 Z-1.000000 I3.008300 J-3.109903
G02 X50.845243 Y170.566823 Z-1.000000 I1.220172 J-2.409279
G02 X51.940940 Y170.269084 Z-1.000000 I0.041119 J-2.013660
G03 X52.353164 Y170.018979 Z-1.000000 I22.037408 J35.857408
G03 X52.534640 Y169.951844 Z-1.000000 I0.269822 J0.450520
G03 X52.632875 Y170.004047 Z-1.000000 I0.015312 J0.089718
G03 X52.677671 Y170.296781 Z-1.000000 I-0.500363 J0.226363
G03 X52.519055 Y171.064083 Z-1.000000 I-4.707866 J-0.573164
G03 X51.382810 Y174.853428 Z-1.000000 I-397.429232 J-117.105136
G02 X50.871733 Y177.078836 Z-1.000000 I15.533859 J4.738821
G02 X50.397239 Y180.967830 Z-1.000000 I56.972060 J8.924580
G02 X50.148184 Y184.858859 Z-1.000000 I82.602134 J7.240646
G02 X50.049701 Y189.398394 Z-1.000000 I121.208610 J4.900382
G02 X50.118701 Y193.936002 Z-1.000000 I124.818968 J0.371294
G02 X50.346318 Y198.085406 Z-1.000000 I96.978061 J-3.238807
G02 X50.782144 Y202.232836 Z-1.000000 I73.002473 J-5.574731
G02 X51.293210 Y204.969157 Z-1.000000 I26.818235 J-3.592989
G02 X53.306480 Y211.026784 Z-1.000000 I36.656355 J-8.819475
G02 X56.699919 Y217.436953 Z-1.000000 I41.055843 J-17.630992
G02 X61.016901 Y223.367911 Z-1.000000 I50.665766 J-32.341638
G02 X68.107100 Y231.309455 Z-1.000000 I106.430748 J-87.885392
G02 X70.737041 Y233.895448 Z-1.000000 I50.230021 J-48.453346
G02 X72.830122 Y235.624269 Z-1.000000 I15.395639 J-16.508024
G02 X75.116527 Y237.021667 Z-1.000000 I9.685570 J-13.278215
G02 X77.700868 Y238.051620 Z-1.000000 I7.146256 J-14.173992
G02 X80.445212 Y238.673075 Z-1.000000 I5.880917 J-19.599907
G02 X84.506872 Y239.127857 Z-1.000000 I7.393102 J-47.663053
G02 X88.636229 Y239.314049 Z-1.000000 I5.932396 J-85.684817
G02 X95.035670 Y239.389326 Z-1.000000 I7.276789 J-346.562283
G02 X102.681337 Y239.298992 Z-1.000000 I0.674490 J-266.512843
G02 X106.700734 Y239.047048 Z-1.000000 I-1.445719 J-55.252079
G02 X110.570180 Y238.435266 Z-1.000000 I-3.354607 J-33.760285
G02 X114.071380 Y237.497831 Z-1.000000 I-8.207232 J-37.659946
G03 X120.118497 Y235.610895 Z-1.000000 I155.643480 J488.161902
G03 X125.443630 Y234.026239 Z-1.000000 I115.089211 J377.010066
G02 X129.972681 Y232.145783 Z-1.000000 I-6.144239 J-21.192617
G02 X135.302873 Y228.731190 Z-1.000000 I-23.622376 J-42.742130
G02 X137.652620 Y226.868017 Z-1.000000 I-24.830627 J-33.728525
G02 X139.412243 Y225.215102 Z-1.000000 I-16.353640 J-19.172455
G02 X140.950138 Y223.368863 Z-1.000000 I-11.648632 J-11.266808
G02 X141.538490 Y222.177358 Z-1.000000 I-3.358787 J-2.399546
G03 X142.211162 Y220.205193 Z-1.000000 I31.435365 J9.621272
G03 X146.186240 Y209.844787 Z-1.000000 I872.277577 J328.732443
G02 X149.473711 Y200.165691 Z-1.000000 I-106.092891 J-41.431915
G02 X150.691594 Y193.724823 Z-1.000000 I-32.956822 J-9.567275
G02 X150.623430 Y187.201443 Z-1.000000 I-32.002108 J-2.927651
G02 X149.099020 Y178.005210 Z-1.000000 I-88.863071 J10.005889
G01 X146.931290 Y168.145481 Z-1.000000
G01 X149.091410 Y167.166761 Z-1.000000
G02 X150.593005 Y166.217634 Z-1.000000 I-2.659813 J-5.870424
G02 X151.703365 Y164.953757 Z-1.000000 I-3.682323 J-4.354729
G02 X152.426724 Y163.418268 Z-1.000000 I-5.397237 J-3.480735
G02 X152.863009 Y161.301694 Z-1.000000 I-9.877630 J-3.139307
G02 X152.711466 Y156.987982 Z-1.000000 I-16.080904 J-1.594589
G02 X150.849010 Y149.441930 Z-1.000000 I-52.590907 J8.977204
G02 X147.873917 Y141.040753 Z-1.000000 I-166.406181 J54.201744
G02 X146.174925 Y137.320629 Z-1.000000 I-30.523563 J11.692171
G02 X145.096123 Y135.572750 Z-1.000000 I-14.626241 J7.820548
G02 X144.301673 Y134.662131 Z-1.000000 I-4.826454 J3.408878
G02 X143.334512 Y134.021836 Z-1.000000 I-2.392111 J2.562675
G02 X142.510400 Y133.846790 Z-1.000000 I-0.824112 J1.852420
G03 X141.858126 Y133.776976 Z-1.000000 I0.000000 J-3.082015
G03 X141.300887 Y133.551652 Z-1.000000 I0.373765 J-1.726046
G03 X140.838848 Y133.160466 Z-1.000000 I1.087361 J-1.752762
G03 X140.241116 Y132.332933 Z-1.000000 I4.024021 J-3.536213
G03 X139.359600 Y130.504422 Z-1.000000 I10.836494 J-6.350964
G03 X137.398750 Y125.124910 Z-1.000000 I142.143301 J-54.858835
G03 X134.865415 Y116.979935 Z-1.000000 I138.163791 J-47.439598
G03 X133.745005 Y112.140745 Z-1.000000 I53.380930 J-14.908503
G03 X133.398379 Y109.715097 Z-1.000000 I29.569792 J-5.463122
G03 X133.368786 Y108.406375 Z-1.000000 I8.295691 J-0.842278
G03 X133.660726 Y107.316049 Z-1.000000 I2.759434 J0.154604
G03 X134.062780 Y107.068570 Z-1.000000 I0.402054 J0.202849
G02 X134.501867 Y106.918446 Z-1.000000 I0.000000 J-0.717188
G02 X135.970705 Y105.618505 Z-1.000000 I-9.160863 J-11.830916
G02 X137.293731 Y104.185341 Z-1.000000 I-19.644980 J-19.462521
G02 X138.953320 Y102.132190 Z-1.000000 I-32.933593 J-28.317977
G03 X141.272270 Y99.429885 Z-1.000000 I23.724510 J18.012754
G03 X143.962974 Y97.061694 Z-1.000000 I16.104318 J15.584825
G03 X147.029027 Y95.011263 Z-1.000000 I21.143996 J28.299494
G03 X153.115620 Y91.550820 Z-1.000000 I88.463171 J148.515273
G03 X157.649905 Y89.199067 Z-1.000000 I66.711291 J123.075342
G03 X163.708107 Y86.284886 Z-1.000000 I125.857130 J253.886368
G03 X169.833696 Y83.515249 Z-1.000000 I119.811500 J256.827498
G03 X174.550690 Y81.551250 Z-1.000000 I56.197195 J128.324000
G01 X185.571380 Y77.196670 Z-1.000000
G01 X185.367700 Y63.276780 Z-1.000000
G01 X185.164020 Y49.356870 Z-1.000000
G01 X184.877710 Y61.977920 Z-1.000000
G01 X184.591390 Y74.598970 Z-1.000000
G01 X177.420670 Y77.584260 Z-1.000000
G03 X174.326014 Y78.787843 Z-1.000000 I-27.072791 J-65.029375
G03 X171.618234 Y79.696815 Z-1.000000 I-20.706814 J-57.196840
G03 X168.815670 Y80.456640 Z-1.000000 I-12.057640 J-38.925366
G03 X167.737230 Y80.583840 Z-1.000000 I-1.106175 J-4.743211
G02 X165.728268 Y80.876336 Z-1.000000 I0.042472 J7.337068
G02 X165.602130 Y81.205760 Z-1.000000 I0.061900 J0.212563
G03 X165.578337 Y81.433414 Z-1.000000 I-0.158484 J0.098506
G03 X164.654843 Y82.221398 Z-1.000000 I-4.387686 J-4.207095
G03 X163.572748 Y82.902952 Z-1.000000 I-8.230778 J-11.868103
G03 X161.847000 Y83.810020 Z-1.000000 I-14.249574 J-25.015414
G03 X160.062847 Y84.585020 Z-1.000000 I-10.510079 J-21.754423
G03 X158.928238 Y84.952424 Z-1.000000 I-3.823217 J-9.871144
G03 X157.885708 Y85.071759 Z-1.000000 I-0.936180 J-3.565089
G03 X157.714240 Y84.895270 Z-1.000000 I0.005094 J-0.176489
G03 X157.983664 Y84.253319 Z-1.000000 I0.899496 J0.000000
G03 X158.642810 Y83.983890 Z-1.000000 I0.659146 J0.671574
G02 X159.289028 Y83.701541 Z-1.000000 I0.000000 J-0.880681
G02 X159.571380 Y82.981000 Z-1.000000 I-0.778207 J-0.720541
G02 X159.393368 Y82.860515 Z-1.000000 I-0.129781 J0.000000
G02 X157.823705 Y83.655606 Z-1.000000 I3.716463 J9.283959
G02 X156.194087 Y84.746349 Z-1.000000 I15.762168 J25.312105
G02 X153.621850 Y86.685850 Z-1.000000 I40.260675 J56.070631
G03 X151.025619 Y88.642275 Z-1.000000 I-42.698500 J-53.961263
G03 X148.432595 Y90.420960 Z-1.000000 I-43.801828 J-61.076269
G03 X145.723577 Y92.091534 Z-1.000000 I-31.472907 J-48.004988
G03 X144.310950 Y92.790230 Z-1.000000 I-6.029229 J-10.412547
G02 X142.923785 Y93.530392 Z-1.000000 I3.135182 J7.545710
G02 X141.191894 Y94.838201 Z-1.000000 I9.970270 J15.003970
G02 X139.624766 Y96.335040 Z-1.000000 I12.709099 J14.874676
G02 X138.421190 Y97.822510 Z-1.000000 I9.620002 J9.014623
G03 X136.346439 Y100.516952 Z-1.000000 I-28.779161 J-20.014266
G03 X135.477403 Y101.248589 Z-1.000000 I-2.613731 J-2.222646
G03 X134.977734 Y101.407342 Z-1.000000 I-0.595340 J-1.008087
G03 X134.641137 Y101.320561 Z-1.000000 I-0.043308 J-0.528194
G03 X134.381859 Y101.040860 Z-1.000000 I0.449820 J-0.676996
G03 X134.100740 Y100.374010 Z-1.000000 I2.830718 J-1.586006
G02 X133.730832 Y99.229233 Z-1.000000 I-22.787792 J6.731199
G02 X130.451130 Y89.985910 Z-1.000000 I-1489.737070 J523.382705
G03 X127.995162 Y82.851892 Z-1.000000 I283.803207 J-101.692275
G03 X121.563609 Y63.186615 Z-1.000000 I3325.820844 J-1098.598237
G03 X115.186147 Y43.280378 Z-1.000000 I3218.526047 J-1042.110087
G03 X113.558830 Y37.814540 Z-1.000000 I154.580051 J-48.997535
G02 X112.786905 Y35.569095 Z-1.000000 I-19.284079 J5.373953
G02 X112.228630 Y34.582680 Z-1.000000 I-4.218237 J1.736180
G03 X111.688094 Y33.590810 Z-1.000000 I3.233572 J-2.405409
G03 X110.931730 Y31.119980 Z-1.000000 I19.748822 J-7.396643
G02 X110.584982 Y30.073685 Z-1.000000 I-6.367988 J1.529782
G02 X110.178779 Y29.326592 Z-1.000000 I-4.176495 J1.786836
G02 X109.625572 Y28.722310 Z-1.000000 I-2.281705 J1.533483
G02 X109.225120 Y28.580670 Z-1.000000 I-0.400452 J0.495270
G02 X108.705985 Y28.671312 Z-1.000000 I0.000000 J1.531949
G02 X108.603973 Y28.818965 Z-1.000000 I0.052298 J0.145198
G02 X108.680125 Y29.041629 Z-1.000000 I0.381341 J-0.006066
G02 X109.242720 Y29.688730 Z-1.000000 I4.736765 J-3.550073
G03 X110.131572 Y30.888608 Z-1.000000 I-3.508577 J3.528266
G03 X110.342790 Y31.766350 Z-1.000000 I-1.607350 J0.851073
G03 X110.228191 Y32.014119 Z-1.000000 I-0.334642 J-0.004393
G03 X110.043699 Y32.044234 Z-1.000000 I-0.116495 J-0.133499
G03 X109.800788 Y31.884156 Z-1.000000 I0.297438 J-0.715692
G03 X109.343530 Y31.350830 Z-1.000000 I2.707681 J-2.784167
G02 X108.750647 Y30.659186 Z-1.000000 I-4.108496 J2.921903
G02 X108.470444 Y30.518802 Z-1.000000 I-0.361349 J0.371415
G02 X108.216498 Y30.606081 Z-1.000000 I-0.044818 J0.282676
G02 X107.887510 Y31.119980 Z-1.000000 I1.231458 J1.150609
G03 X107.192051 Y32.087905 Z-1.000000 I-2.363611 J-0.964459
G03 X106.710978 Y32.233801 Z-1.000000 I-0.404908 J-0.469045
G03 X106.312651 Y31.969591 Z-1.000000 I0.065848 J-0.531638
G03 X106.023670 Y30.889130 Z-1.000000 I1.875356 J-1.080461
G03 X106.309828 Y29.790209 Z-1.000000 I2.253148 J-0.000000
G03 X106.797490 Y29.504050 Z-1.000000 I0.487662 J0.272448
G02 X107.044014 Y29.378812 Z-1.000000 I0.000000 J-0.305254
G02 X107.363159 Y28.758127 Z-1.000000 I-1.816325 J-1.326312
G02 X107.538675 Y28.034527 Z-1.000000 I-4.359606 J-1.440553
G02 X107.636560 Y26.964740 Z-1.000000 I-8.099952 J-1.280512
G03 X107.728453 Y25.419141 Z-1.000000 I22.984566 J0.591001
G03 X107.820009 Y25.226667 Z-1.000000 I0.308651 J0.028807
G03 X107.945293 Y25.244463 Z-1.000000 I0.055824 J0.056900
G03 X108.404940 Y26.210900 Z-1.000000 I-6.782598 J3.818398
G02 X108.945084 Y27.298755 Z-1.000000 I6.600874 J-2.599453
G02 X109.169072 Y27.517744 Z-1.000000 I0.540605 J-0.328900
G02 X109.370362 Y27.479463 Z-1.000000 I0.078464 J-0.135777
G02 X109.547735 Y27.065512 Z-1.000000 I-0.670660 J-0.532346
G02 X109.544902 Y25.823254 Z-1.000000 I-4.377494 J-0.611150
G02 X108.847600 Y23.040340 Z-1.000000 I-13.911614 J2.006954
G02 X108.297538 Y21.705400 Z-1.000000 I-15.752155 J5.709881
G02 X108.004841 Y21.200890 Z-1.000000 I-2.887917 J1.338293
G02 X107.820479 Y21.004812 Z-1.000000 I-0.802500 J0.569836
G02 X107.736490 Y20.986118 Z-1.000000 I-0.060859 J0.075408
G02 X107.676019 Y21.040874 Z-1.000000 I0.020504 J0.083412
G02 X107.623700 Y21.316720 Z-1.000000 I0.870040 J0.307903
G03 X107.181250 Y22.319788 Z-1.000000 I-1.474482 J-0.051274
G03 X105.625806 Y23.275231 Z-1.000000 I-2.875894 J-2.938064
G03 X103.640935 Y23.723029 Z-1.000000 I-3.115369 J-9.186038
G03 X99.855780 Y23.951130 Z-1.000000 I-3.904628 J-33.274328
G02 X98.365680 Y24.040539 Z-1.000000 I0.047703 J13.256859
G02 X97.514744 Y24.212560 Z-1.000000 I0.605858 J5.187663
G02 X96.892880 Y24.553893 Z-1.000000 I0.454730 J1.565605
G02 X96.853070 Y24.823310 Z-1.000000 I0.139123 J0.158207
G03 X96.959573 Y25.581927 Z-1.000000 I-0.803930 J0.499649
G03 X96.443590 Y26.262890 Z-1.000000 I-1.132455 J-0.322122
G03 X96.062485 Y26.341996 Z-1.000000 I-0.300133 J-0.488366
G03 X95.755551 Y26.181824 Z-1.000000 I0.073483 J-0.514984
G03 X95.552434 Y25.842294 Z-1.000000 I0.689225 J-0.642835
G03 X95.426560 Y25.172460 Z-1.000000 I2.281525 J-0.775485
G02 X95.333689 Y24.457054 Z-1.000000 I-4.234883 J0.186023
G02 X95.241989 Y24.295231 Z-1.000000 I-0.306248 J0.066649
G02 X95.126166 Y24.296797 Z-1.000000 I-0.057100 J0.060805
G02 X94.882960 Y24.662020 Z-1.000000 I0.768757 J0.775513
G03 X94.252694 Y25.334798 Z-1.000000 I-1.188566 J-0.481854
G03 X93.563420 Y25.300060 Z-1.000000 I-0.312899 J-0.647113
G02 X93.199362 Y25.173822 Z-1.000000 I-0.467881 J0.761247
G02 X92.963666 Y25.218694 Z-1.000000 I-0.046479 J0.397308
G02 X92.798605 Y25.390326 Z-1.000000 I0.183358 J0.341524
G02 X92.714200 Y25.756010 Z-1.000000 I0.749955 J0.365684
G02 X92.790012 Y26.094920 Z-1.000000 I0.795436 J-0.000000
G02 X93.014183 Y26.378036 Z-1.000000 I0.717816 J-0.338059
G02 X93.345294 Y26.566188 Z-1.000000 I0.768595 J-0.967154
G02 X93.983466 Y26.743446 Z-1.000000 I1.289720 J-3.405892
G02 X95.307740 Y26.866673 Z-1.000000 I1.367843 J-7.522372
G02 X98.345950 Y26.780070 Z-1.000000 I0.253305 J-44.450284
G03 X99.772360 Y26.837736 Z-1.000000 I0.434539 J6.921785
G03 X100.310638 Y27.154196 Z-1.000000 I-0.118024 J0.816769
G03 X100.546484 Y27.781012 Z-1.000000 I-0.926754 J0.706479
G03 X100.559070 Y29.683230 Z-1.000000 I-15.364587 J1.052812
G03 X100.315644 Y33.050730 Z-1.000000 I-99.276038 J-5.483794
G03 X100.150403 Y33.759415 Z-1.000000 I-2.598293 J-0.232229
G03 X99.969742 Y33.952266 Z-1.000000 I-0.329135 J-0.127284
G03 X99.790043 Y33.936385 Z-1.000000 I-0.076059 J-0.163994
G03 X99.589010 Y33.743925 Z-1.000000 I0.523248 J-0.747774
G03 X99.199980 Y33.197600 Z-1.000000 I7.536559 J-5.778359
G02 X98.578066 Y32.402488 Z-1.000000 I-5.251192 J3.466560
G02 X98.285626 Y32.274215 Z-1.000000 I-0.292439 J0.269217
G02 X97.993188 Y32.402489 Z-1.000000 I-0.000000 J0.397488
G02 X97.371280 Y33.197600 Z-1.000000 I4.629238 J4.261598
G03 X96.873107 Y33.835793 Z-1.000000 I-4.263447 J-2.814510
G03 X96.681271 Y33.949790 Z-1.000000 I-0.285194 J-0.261519
G03 X96.544827 Y33.884014 Z-1.000000 I-0.028607 J-0.115065
G03 X96.442710 Y33.428450 Z-1.000000 I1.027126 J-0.469463
G02 X96.122365 Y32.584068 Z-1.000000 I-1.316743 J0.016593
G02 X95.445110 Y32.274210 Z-1.000000 I-0.677255 J0.585208
G02 X95.085578 Y32.365349 Z-1.000000 I0.000000 J0.754723
G02 X94.919186 Y32.545457 Z-1.000000 I0.181065 J0.334190
G02 X94.886388 Y32.798486 Z-1.000000 I0.409903 J0.181773
G02 X95.035630 Y33.197600 Z-1.000000 I1.067994 J-0.171899
G03 X95.184872 Y33.596714 Z-1.000000 I-0.918749 J0.571011
G03 X95.152073 Y33.849742 Z-1.000000 I-0.442699 J0.071254
G03 X94.985679 Y34.029850 Z-1.000000 I-0.347457 J-0.154084
G03 X94.626140 Y34.120990 Z-1.000000 I-0.359539 J-0.663608
G03 X93.948819 Y33.811149 Z-1.000000 I0.000000 J-0.895240
G03 X93.628550 Y32.966750 Z-1.000000 I0.995746 J-0.860610
G02 X93.522417 Y32.507690 Z-1.000000 I-1.107107 J0.014160
G02 X93.376586 Y32.437156 Z-1.000000 I-0.116645 J0.055145
G02 X93.170272 Y32.553458 Z-1.000000 I0.095231 J0.410082
G02 X92.634190 Y33.197600 Z-1.000000 I3.838833 J3.739983
G03 X92.118114 Y33.706639 Z-1.000000 I-1.685698 J-1.192878
G03 X91.940665 Y33.651041 Z-1.000000 I-0.066924 J-0.097380
G03 X91.880609 Y33.273613 Z-1.000000 I0.883840 J-0.334127
G03 X92.023300 Y31.581670 Z-1.000000 I22.152312 J1.016238
G02 X92.094740 Y30.306539 Z-1.000000 I-9.543136 J-1.174224
G02 X92.013089 Y29.462214 Z-1.000000 I-4.942690 J0.051875
G02 X91.742087 Y28.736184 Z-1.000000 I-2.189466 J0.403658
G02 X91.470040 Y28.580670 Z-1.000000 I-0.272047 J0.160195
G03 X91.112871 Y28.519369 Z-1.000000 I0.000000 J-1.071173
G03 X90.982951 Y28.417156 Z-1.000000 I0.085889 J-0.242846
G03 X90.961194 Y28.269900 Z-1.000000 I0.149306 J-0.097296
G03 X91.107300 Y28.024030 Z-1.000000 I0.550473 J0.160768
G02 X91.245210 Y27.743696 Z-1.000000 I-0.338934 J-0.340827
G02 X91.254029 Y26.980676 Z-1.000000 I-3.309166 J-0.419808
G02 X91.120815 Y26.213629 Z-1.000000 I-5.625655 J0.581917
G02 X90.820760 Y25.253870 Z-1.000000 I-7.858618 J1.930106
G03 X90.492580 Y24.183364 Z-1.000000 I7.728196 J-2.954752
G03 X90.435503 Y23.622878 Z-1.000000 I2.144318 J-0.501519
G03 X90.587354 Y23.186730 Z-1.000000 I0.760811 J0.020380
G03 X90.880060 Y23.040340 Z-1.000000 I0.292706 J0.219437
G02 X91.333780 Y22.943471 Z-1.000000 I-0.000000 J-1.111012
G02 X91.589819 Y22.738143 Z-1.000000 I-0.265436 J-0.593296
G02 X91.726510 Y22.425385 Z-1.000000 I-0.606807 J-0.451453
G02 X91.739895 Y21.959665 Z-1.000000 I-1.476857 J-0.275498
G02 X91.440727 Y21.043709 Z-1.000000 I-2.547251 J0.325144
G02 X90.459110 Y19.742530 Z-1.000000 I-5.045377 J2.785404
G02 X88.662728 Y18.661994 Z-1.000000 I-3.095681 J3.113040
G02 X86.682703 Y18.411570 Z-1.000000 I-1.699662 J5.485773
G02 X84.987416 Y18.938203 Z-1.000000 I0.173541 J3.550615
G02 X84.386600 Y20.039330 Z-1.000000 I0.666191 J1.077976
G02 X84.700375 Y21.529655 Z-1.000000 I4.047012 J-0.073870
G02 X85.623950 Y23.188453 Z-1.000000 I7.885699 J-3.304040
G02 X86.900133 Y24.551257 Z-1.000000 I5.719618 J-4.077137
G02 X87.842240 Y24.887120 Z-1.000000 I0.942107 J-1.153388
G03 X88.597872 Y25.183576 Z-1.000000 I0.000000 J1.111237
G03 X89.335730 Y26.272200 Z-1.000000 I-1.983505 J2.138767
G03 X89.318012 Y27.283509 Z-1.000000 I-1.253825 J0.483843
G03 X88.738640 Y27.671420 Z-1.000000 I-0.587354 J-0.250633
G02 X88.258952 Y27.752080 Z-1.000000 I0.020127 J1.586389
G02 X88.153724 Y27.861581 Z-1.000000 I0.051332 J0.154641
G02 X88.182004 Y28.013705 Z-1.000000 I0.165937 J0.047843
G02 X88.539000 Y28.363960 Z-1.000000 I1.364360 J-1.033558
G03 X89.010236 Y28.876324 Z-1.000000 I-1.041618 J1.430893
G03 X89.429688 Y29.762804 Z-1.000000 I-4.048783 J2.458220
G03 X89.688267 Y30.726997 Z-1.000000 I-6.183144 J2.174974
G03 X89.810430 Y31.733995 Z-1.000000 I-7.666175 J1.440927
G03 X89.556168 Y33.560420 Z-1.000000 I-4.775655 J0.266077
G03 X88.847880 Y33.907810 Z-1.000000 I-0.528849 J-0.182507
G03 X88.102941 Y33.184188 Z-1.000000 I0.387429 J-1.144095
G03 X87.914780 Y31.394910 Z-1.000000 I3.398437 J-1.261914
G02 X87.971770 Y30.410028 Z-1.000000 I-5.540638 J-0.814699
G02 X87.877084 Y30.015721 Z-1.000000 I-0.994236 J0.030228
G02 X87.636031 Y29.835414 Z-1.000000 I-0.290517 J0.137107
G02 X87.218350 Y29.919310 Z-1.000000 I-0.094920 J0.609109
G03 X86.779570 Y30.087691 Z-1.000000 I-0.670118 J-1.090348
G03 X86.475085 Y30.067903 Z-1.000000 I-0.112945 J-0.614546
G03 X86.238350 Y29.901632 Z-1.000000 I0.149681 J-0.464782
G03 X86.098150 Y29.558550 Z-1.000000 I0.550173 J-0.425014
G02 X85.978991 Y28.581055 Z-1.000000 I-151.256213 J17.942411
G02 X85.866000 Y27.703450 Z-1.000000 I-125.089494 J15.659174
G02 X85.579858 Y26.910477 Z-1.000000 I-1.960153 J0.259203
G02 X84.589220 Y25.672000 Z-1.000000 I-5.926170 J3.724811
G03 X84.190618 Y25.110120 Z-1.000000 I1.425731 J-1.433749
G03 X83.769460 Y23.995616 Z-1.000000 I6.366852 J-3.042789
G03 X83.519429 Y22.830221 Z-1.000000 I8.766771 J-2.490396
G03 X83.428500 Y21.586010 Z-1.000000 I8.467015 J-1.244211
G02 X83.301865 Y19.867546 Z-1.000000 I-11.723295 J-0.000000
G02 X83.025754 Y19.199216 Z-1.000000 I-1.476505 J0.218798
G02 X82.467391 Y18.816460 Z-1.000000 I-0.831725 J0.614670
G02 X81.261840 Y18.654250 Z-1.000000 I-1.205551 J4.398739
G02 X79.462968 Y19.050438 Z-1.000000 I0.000000 J4.281943
G02 X79.017880 Y19.693060 Z-1.000000 I0.323986 J0.699845
G01 X79.017950 Y19.693040 Z-1.000000
G00 Z4.000000

(End cutting path id: path323)


(Start cutting path id: path323)
(Change tool to Cylindrical cutter)

G00 Z4.000000
G00 X79.017950 Y19.693040

G01 Z-2.000000 F100.0(Penetrate)
G03 X78.875757 Y20.927431 Z-2.000000 I-15.329733 J-1.140487 F400.000000
G03 X75.605265 Y41.639985 Z-2.000000 I-6942.867872 J-1085.657630
G03 X72.464721 Y61.188981 Z-2.000000 I-8209.909635 J-1308.894271
G03 X70.755550 Y71.518150 Z-2.000000 I-1474.426088 J-238.667786
G03 X70.032819 Y75.446869 Z-2.000000 I-136.431091 J-23.067149
G03 X69.401586 Y78.366741 Z-2.000000 I-88.540341 J-17.612941
G03 X68.613957 Y81.327594 Z-2.000000 I-48.856569 J-11.411364
G03 X68.338660 Y81.865810 Z-2.000000 I-1.597666 J-0.477689
G02 X67.874189 Y82.998963 Z-2.000000 I1.846477 J1.418625
G02 X68.082000 Y83.943430 Z-2.000000 I1.441074 J0.178017
G03 X68.231313 Y84.358125 Z-2.000000 I-0.895817 J0.556772
G03 X68.187019 Y84.624133 Z-2.000000 I-0.451936 J0.061437
G03 X68.000112 Y84.811534 Z-2.000000 I-0.377195 J-0.189291
G03 X67.598310 Y84.907260 Z-2.000000 I-0.401802 J-0.795405
G02 X67.037355 Y85.265179 Z-2.000000 I0.000000 J0.618543
G02 X67.006850 Y86.180290 Z-2.000000 I1.062121 J0.493470
G03 X67.120710 Y86.748850 Z-2.000000 I-1.592888 J0.614674
G03 X67.073723 Y88.129461 Z-2.000000 I-11.319842 J0.305845
G03 X66.887715 Y89.486711 Z-2.000000 I-16.577097 J-1.580478
G03 X66.544660 Y91.028080 Z-2.000000 I-18.664032 J-3.345101
G02 X65.843756 Y94.634095 Z-2.000000 I25.864350 J6.898396
G02 X65.643860 Y98.296370 Z-2.000000 I26.481786 J3.282037
G03 X65.608294 Y100.245530 Z-2.000000 I-29.997911 J0.427533
G03 X65.516216 Y100.715523 Z-2.000000 I-1.681380 J-0.085388
G03 X65.408982 Y100.833949 Z-2.000000 I-0.193804 J-0.067725
G03 X65.301572 Y100.816286 Z-2.000000 I-0.040748 J-0.087621
G03 X65.191065 Y100.671203 Z-2.000000 I0.398342 J-0.418034
G03 X64.974910 Y100.210650 Z-2.000000 I4.189616 J-2.247353
G02 X64.442664 Y99.032600 Z-2.000000 I-15.336930 J6.219998
G02 X64.261558 Y98.914808 Z-2.000000 I-0.190906 J0.095398
G02 X64.082757 Y99.020797 Z-2.000000 I-0.008694 J0.189143
G02 X63.591270 Y100.147050 Z-2.000000 I12.782792 J6.248665
G03 X63.344262 Y100.713945 Z-2.000000 I-6.768371 J-2.611864
G03 X63.159433 Y100.989684 Z-2.000000 I-1.092683 J-0.532615
G03 X62.916151 Y101.141748 Z-2.000000 I-0.381474 J-0.339665
G03 X62.616936 Y101.133016 Z-2.000000 I-0.135649 J-0.482680
G03 X62.055944 Y100.791203 Z-2.000000 I0.502450 J-1.455899
G03 X60.314810 Y99.016300 Z-2.000000 I26.129135 J-27.373452
G02 X59.094831 Y97.885943 Z-2.000000 I-7.609061 J6.988828
G02 X56.860050 Y96.273110 Z-2.000000 I-20.505351 J26.058008
G02 X54.523243 Y94.844398 Z-2.000000 I-21.679433 J32.833575
G02 X52.225210 Y93.674880 Z-2.000000 I-14.682096 J26.006924
G03 X40.671842 Y88.308308 Z-2.000000 I363.189472 J-797.008200
G03 X35.096789 Y85.537635 Z-2.000000 I69.714806 J-147.272041
G03 X29.876818 Y82.563040 Z-2.000000 I36.902810 J-70.826358
G03 X26.635690 Y80.341920 Z-2.000000 I22.927769 J-36.932261
G02 X21.970423 Y77.150198 Z-2.000000 I-37.007346 J49.087375
G02 X20.903983 Y76.690411 Z-2.000000 I-2.086339 J3.372446
G02 X20.676763 Y76.683238 Z-2.000000 I-0.129028 J0.484817
G02 X20.621709 Y76.748169 Z-2.000000 I0.013406 J0.067172
G02 X20.652067 Y76.867213 Z-2.000000 I0.220295 J0.007215
G02 X20.904130 Y77.221973 Z-2.000000 I2.192460 J-1.290852
G02 X21.519319 Y77.862978 Z-2.000000 I5.514863 J-4.677047
G02 X23.371920 Y79.473310 Z-2.000000 I28.756386 J-31.211861
G03 X24.827273 Y80.738621 Z-2.000000 I-21.057218 J25.689513
G03 X25.724059 Y81.630510 Z-2.000000 I-11.291295 J12.250084
G03 X26.471443 Y82.586127 Z-2.000000 I-5.140198 J4.790202
G03 X26.451180 Y82.777550 Z-2.000000 I-0.127825 J0.083253
G03 X26.229534 Y82.846267 Z-2.000000 I-0.176507 J-0.177505
G03 X24.197719 Y82.380224 Z-2.000000 I4.257430 J-23.223258
G03 X22.226332 Y81.791050 Z-2.000000 I13.188470 J-47.721606
G03 X19.383780 Y80.824380 Z-2.000000 I27.677035 J-86.048697
G02 X13.952968 Y78.909749 Z-2.000000 I-178.001528 J496.238354
G02 X12.738956 Y78.615080 Z-2.000000 I-2.147290 J6.198495
G02 X12.187035 Y78.658613 Z-2.000000 I-0.179290 J1.247385
G02 X11.999490 Y78.822350 Z-2.000000 I0.090768 J0.293243
G02 X11.930517 Y79.129507 Z-2.000000 I0.670016 J0.311775
G02 X11.928570 Y79.752820 Z-2.000000 I99.760869 J0.623313
G02 X12.163132 Y80.238145 Z-2.000000 I0.619367 J0.000000
G02 X13.951708 Y81.372042 Z-2.000000 I6.255255 J-7.889279
G02 X15.978645 Y82.263249 Z-2.000000 I10.817795 J-21.853119
G02 X19.589290 Y83.545050 Z-2.000000 I24.941996 J-64.531686
G03 X27.176445 Y86.226883 Z-2.000000 I-47.125678 J145.396196
G03 X40.714290 Y91.643800 Z-2.000000 I-179.641487 J468.581483
G03 X48.750548 Y95.142321 Z-2.000000 I-109.209838 J261.838935
G03 X52.664786 Y97.129434 Z-2.000000 I-20.757240 J45.736568
G03 X56.208543 Y99.470849 Z-2.000000 I-14.830286 J26.298258
G03 X59.369670 Y102.164070 Z-2.000000 I-24.608770 J32.085941
G02 X61.621677 Y104.211617 Z-2.000000 I54.616791 J-57.808391
G02 X63.316369 Y105.627871 Z-2.000000 I32.161426 J-36.762346
G02 X65.135184 Y106.953738 Z-2.000000 I16.099044 J-20.174100
G02 X65.515620 Y107.068570 Z-2.000000 I0.380436 J-0.572775
G03 X65.819208 Y107.345870 Z-2.000000 I0.000000 J0.304834
G03 X65.775354 Y109.438130 Z-2.000000 I-9.373471 J0.850122
G03 X65.378633 Y111.701815 Z-2.000000 I-27.700258 J-3.687990
G03 X64.481204 Y115.408329 Z-2.000000 I-81.270492 J-17.715492
G03 X62.177845 Y123.068634 Z-2.000000 I-122.277600 J-32.590913
G03 X59.051900 Y131.319750 Z-2.000000 I-108.822151 J-36.509705
G03 X57.984535 Y133.501104 Z-2.000000 I-20.535677 J-8.696556
G03 X57.112411 Y134.782674 Z-2.000000 I-7.699638 J-4.302169
G03 X56.009090 Y135.806553 Z-2.000000 I-4.259324 J-3.483399
G03 X55.009970 Y136.262020 Z-2.000000 I-1.729134 J-2.469481
G02 X53.846282 Y136.929385 Z-2.000000 I0.595785 J2.387119
G02 X51.981466 Y139.262832 Z-2.000000 I10.725334 J10.483217
G02 X50.472726 Y141.906887 Z-2.000000 I22.849448 J14.790751
G02 X48.801081 Y145.608570 Z-2.000000 I47.330224 J23.602159
G02 X47.403281 Y149.413118 Z-2.000000 I55.769009 J22.648724
G02 X46.270670 Y153.324791 Z-2.000000 I52.878011 J17.430439
G02 X45.458504 Y157.314726 Z-2.000000 I44.446528 J11.124889
G02 X45.192090 Y160.437051 Z-2.000000 I21.743195 J3.427777
G02 X45.850070 Y164.848925 Z-2.000000 I13.833201 J0.191939
G02 X47.474365 Y168.162610 Z-2.000000 I12.096100 J-3.874300
G02 X48.626803 Y169.525911 Z-2.000000 I7.354482 J-5.048213
G02 X49.680207 Y170.276027 Z-2.000000 I3.008300 J-3.109903
G02 X50.845243 Y170.566823 Z-2.000000 I1.220172 J-2.409279
G02 X51.940940 Y170.269084 Z-2.000000 I0.041119 J-2.013660
G03 X52.353164 Y170.018979 Z-2.000000 I22.037408 J35.857408
G03 X52.534640 Y169.951844 Z-2.000000 I0.269822 J0.450520
G03 X52.632875 Y170.004047 Z-2.000000 I0.015312 J0.089718
G03 X52.677671 Y170.296781 Z-2.000000 I-0.500363 J0.226363
G03 X52.519055 Y171.064083 Z-2.000000 I-4.707866 J-0.573164
G03 X51.382810 Y174.853428 Z-2.000000 I-397.429232 J-117.105136
G02 X50.871733 Y177.078836 Z-2.000000 I15.533859 J4.738821
G02 X50.397239 Y180.967830 Z-2.000000 I56.972060 J8.924580
G02 X50.148184 Y184.858859 Z-2.000000 I82.602134 J7.240646
G02 X50.049701 Y189.398394 Z-2.000000 I121.208610 J4.900382
G02 X50.118701 Y193.936002 Z-2.000000 I124.818968 J0.371294
G02 X50.346318 Y198.085406 Z-2.000000 I96.978061 J-3.238807
G02 X50.782144 Y202.232836 Z-2.000000 I73.002473 J-5.574731
G02 X51.293210 Y204.969157 Z-2.000000 I26.818235 J-3.592989
G02 X53.306480 Y211.026784 Z-2.000000 I36.656355 J-8.819475
G02 X56.699919 Y217.436953 Z-2.000000 I41.055843 J-17.630992
G02 X61.016901 Y223.367911 Z-2.000000 I50.665766 J-32.341638
G02 X68.107100 Y231.309455 Z-2.000000 I106.430748 J-87.885392
G02 X70.737041 Y233.895448 Z-2.000000 I50.230021 J-48.453346
G02 X72.830122 Y235.624269 Z-2.000000 I15.395639 J-16.508024
G02 X75.116527 Y237.021667 Z-2.000000 I9.685570 J-13.278215
G02 X77.700868 Y238.051620 Z-2.000000 I7.146256 J-14.173992
G02 X80.445212 Y238.673075 Z-2.000000 I5.880917 J-19.599907
G02 X84.506872 Y239.127857 Z-2.000000 I7.393102 J-47.663053
G02 X88.636229 Y239.314049 Z-2.000000 I5.932396 J-85.684817
G02 X95.035670 Y239.389326 Z-2.000000 I7.276789 J-346.562283
G02 X102.681337 Y239.298992 Z-2.000000 I0.674490 J-266.512843
G02 X106.700734 Y239.047048 Z-2.000000 I-1.445719 J-55.252079
G02 X110.570180 Y238.435266 Z-2.000000 I-3.354607 J-33.760285
G02 X114.071380 Y237.497831 Z-2.000000 I-8.207232 J-37.659946
G03 X120.118497 Y235.610895 Z-2.000000 I155.643480 J488.161902
G03 X125.443630 Y234.026239 Z-2.000000 I115.089211 J377.010066
G02 X129.972681 Y232.145783 Z-2.000000 I-6.144239 J-21.192617
G02 X135.302873 Y228.731190 Z-2.000000 I-23.622376 J-42.742130
G02 X137.652620 Y226.868017 Z-2.000000 I-24.830627 J-33.728525
G02 X139.412243 Y225.215102 Z-2.000000 I-16.353640 J-19.172455
G02 X140.950138 Y223.368863 Z-2.000000 I-11.648632 J-11.266808
G02 X141.538490 Y222.177358 Z-2.000000 I-3.358787 J-2.399546
G03 X142.211162 Y220.205193 Z-2.000000 I31.435365 J9.621272
G03 X146.186240 Y209.844787 Z-2.000000 I872.277577 J328.732443
G02 X149.473711 Y200.165691 Z-2.000000 I-106.092891 J-41.431915
G02 X150.691594 Y193.724823 Z-2.000000 I-32.956822 J-9.567275
G02 X150.623430 Y187.201443 Z-2.000000 I-32.002108 J-2.927651
G02 X149.099020 Y178.005210 Z-2.000000 I-88.863071 J10.005889
G01 X146.931290 Y168.145481 Z-2.000000
G01 X149.091410 Y167.166761 Z-2.000000
G02 X150.593005 Y166.217634 Z-2.000000 I-2.659813 J-5.870424
G02 X151.703365 Y164.953757 Z-2.000000 I-3.682323 J-4.354729
G02 X152.426724 Y163.418268 Z-2.000000 I-5.397237 J-3.480735
G02 X152.863009 Y161.301694 Z-2.000000 I-9.877630 J-3.139307
G02 X152.711466 Y156.987982 Z-2.000000 I-16.080904 J-1.594589
G02 X150.849010 Y149.441930 Z-2.000000 I-52.590907 J8.977204
G02 X147.873917 Y141.040753 Z-2.000000 I-166.406181 J54.201744
G02 X146.174925 Y137.320629 Z-2.000000 I-30.523563 J11.692171
G02 X145.096123 Y135.572750 Z-2.000000 I-14.626241 J7.820548
G02 X144.301673 Y134.662131 Z-2.000000 I-4.826454 J3.408878
G02 X143.334512 Y134.021836 Z-2.000000 I-2.392111 J2.562675
G02 X142.510400 Y133.846790 Z-2.000000 I-0.824112 J1.852420
G03 X141.858126 Y133.776976 Z-2.000000 I0.000000 J-3.082015
G03 X141.300887 Y133.551652 Z-2.000000 I0.373765 J-1.726046
G03 X140.838848 Y133.160466 Z-2.000000 I1.087361 J-1.752762
G03 X140.241116 Y132.332933 Z-2.000000 I4.024021 J-3.536213
G03 X139.359600 Y130.504422 Z-2.000000 I10.836494 J-6.350964
G03 X137.398750 Y125.124910 Z-2.000000 I142.143301 J-54.858835
G03 X134.865415 Y116.979935 Z-2.000000 I138.163791 J-47.439598
G03 X133.745005 Y112.140745 Z-2.000000 I53.380930 J-14.908503
G03 X133.398379 Y109.715097 Z-2.000000 I29.569792 J-5.463122
G03 X133.368786 Y108.406375 Z-2.000000 I8.295691 J-0.842278
G03 X133.660726 Y107.316049 Z-2.000000 I2.759434 J0.154604
G03 X134.062780 Y107.068570 Z-2.000000 I0.402054 J0.202849
G02 X134.501867 Y106.918446 Z-2.000000 I0.000000 J-0.717188
G02 X135.970705 Y105.618505 Z-2.000000 I-9.160863 J-11.830916
G02 X137.293731 Y104.185341 Z-2.000000 I-19.644980 J-19.462521
G02 X138.953320 Y102.132190 Z-2.000000 I-32.933593 J-28.317977
G03 X141.272270 Y99.429885 Z-2.000000 I23.724510 J18.012754
G03 X143.962974 Y97.061694 Z-2.000000 I16.104318 J15.584825
G03 X147.029027 Y95.011263 Z-2.000000 I21.143996 J28.299494
G03 X153.115620 Y91.550820 Z-2.000000 I88.463171 J148.515273
G03 X157.649905 Y89.199067 Z-2.000000 I66.711291 J123.075342
G03 X163.708107 Y86.284886 Z-2.000000 I125.857130 J253.886368
G03 X169.833696 Y83.515249 Z-2.000000 I119.811500 J256.827498
G03 X174.550690 Y81.551250 Z-2.000000 I56.197195 J128.324000
G01 X185.571380 Y77.196670 Z-2.000000
G01 X185.367700 Y63.276780 Z-2.000000
G01 X185.164020 Y49.356870 Z-2.000000
G01 X184.877710 Y61.977920 Z-2.000000
G01 X184.591390 Y74.598970 Z-2.000000
G01 X177.420670 Y77.584260 Z-2.000000
G03 X174.326014 Y78.787843 Z-2.000000 I-27.072791 J-65.029375
G03 X171.618234 Y79.696815 Z-2.000000 I-20.706814 J-57.196840
G03 X168.815670 Y80.456640 Z-2.000000 I-12.057640 J-38.925366
G03 X167.737230 Y80.583840 Z-2.000000 I-1.106175 J-4.743211
G02 X165.728268 Y80.876336 Z-2.000000 I0.042472 J7.337068
G02 X165.602130 Y81.205760 Z-2.000000 I0.061900 J0.212563
G03 X165.578337 Y81.433414 Z-2.000000 I-0.158484 J0.098506
G03 X164.654843 Y82.221398 Z-2.000000 I-4.387686 J-4.207095
G03 X163.572748 Y82.902952 Z-2.000000 I-8.230778 J-11.868103
G03 X161.847000 Y83.810020 Z-2.000000 I-14.249574 J-25.015414
G03 X160.062847 Y84.585020 Z-2.000000 I-10.510079 J-21.754423
G03 X158.928238 Y84.952424 Z-2.000000 I-3.823217 J-9.871144
G03 X157.885708 Y85.071759 Z-2.000000 I-0.936180 J-3.565089
G03 X157.714240 Y84.895270 Z-2.000000 I0.005094 J-0.176489
G03 X157.983664 Y84.253319 Z-2.000000 I0.899496 J0.000000
G03 X158.642810 Y83.983890 Z-2.000000 I0.659146 J0.671574
G02 X159.289028 Y83.701541 Z-2.000000 I0.000000 J-0.880681
G02 X159.571380 Y82.981000 Z-2.000000 I-0.778207 J-0.720541
G02 X159.393368 Y82.860515 Z-2.000000 I-0.129781 J0.000000
G02 X157.823705 Y83.655606 Z-2.000000 I3.716463 J9.283959
G02 X156.194087 Y84.746349 Z-2.000000 I15.762168 J25.312105
G02 X153.621850 Y86.685850 Z-2.000000 I40.260675 J56.070631
G03 X151.025619 Y88.642275 Z-2.000000 I-42.698500 J-53.961263
G03 X148.432595 Y90.420960 Z-2.000000 I-43.801828 J-61.076269
G03 X145.723577 Y92.091534 Z-2.000000 I-31.472907 J-48.004988
G03 X144.310950 Y92.790230 Z-2.000000 I-6.029229 J-10.412547
G02 X142.923785 Y93.530392 Z-2.000000 I3.135182 J7.545710
G02 X141.191894 Y94.838201 Z-2.000000 I9.970270 J15.003970
G02 X139.624766 Y96.335040 Z-2.000000 I12.709099 J14.874676
G02 X138.421190 Y97.822510 Z-2.000000 I9.620002 J9.014623
G03 X136.346439 Y100.516952 Z-2.000000 I-28.779161 J-20.014266
G03 X135.477403 Y101.248589 Z-2.000000 I-2.613731 J-2.222646
G03 X134.977734 Y101.407342 Z-2.000000 I-0.595340 J-1.008087
G03 X134.641137 Y101.320561 Z-2.000000 I-0.043308 J-0.528194
G03 X134.381859 Y101.040860 Z-2.000000 I0.449820 J-0.676996
G03 X134.100740 Y100.374010 Z-2.000000 I2.830718 J-1.586006
G02 X133.730832 Y99.229233 Z-2.000000 I-22.787792 J6.731199
G02 X130.451130 Y89.985910 Z-2.000000 I-1489.737070 J523.382705
G03 X127.995162 Y82.851892 Z-2.000000 I283.803207 J-101.692275
G03 X121.563609 Y63.186615 Z-2.000000 I3325.820844 J-1098.598237
G03 X115.186147 Y43.280378 Z-2.000000 I3218.526047 J-1042.110087
G03 X113.558830 Y37.814540 Z-2.000000 I154.580051 J-48.997535
G02 X112.786905 Y35.569095 Z-2.000000 I-19.284079 J5.373953
G02 X112.228630 Y34.582680 Z-2.000000 I-4.218237 J1.736180
G03 X111.688094 Y33.590810 Z-2.000000 I3.233572 J-2.405409
G03 X110.931730 Y31.119980 Z-2.000000 I19.748822 J-7.396643
G02 X110.584982 Y30.073685 Z-2.000000 I-6.367988 J1.529782
G02 X110.178779 Y29.326592 Z-2.000000 I-4.176495 J1.786836
G02 X109.625572 Y28.722310 Z-2.000000 I-2.281705 J1.533483
G02 X109.225120 Y28.580670 Z-2.000000 I-0.400452 J0.495270
G02 X108.705985 Y28.671312 Z-2.000000 I0.000000 J1.531949
G02 X108.603973 Y28.818965 Z-2.000000 I0.052298 J0.145198
G02 X108.680125 Y29.041629 Z-2.000000 I0.381341 J-0.006066
G02 X109.242720 Y29.688730 Z-2.000000 I4.736765 J-3.550073
G03 X110.131572 Y30.888608 Z-2.000000 I-3.508577 J3.528266
G03 X110.342790 Y31.766350 Z-2.000000 I-1.607350 J0.851073
G03 X110.228191 Y32.014119 Z-2.000000 I-0.334642 J-0.004393
G03 X110.043699 Y32.044234 Z-2.000000 I-0.116495 J-0.133499
G03 X109.800788 Y31.884156 Z-2.000000 I0.297438 J-0.715692
G03 X109.343530 Y31.350830 Z-2.000000 I2.707681 J-2.784167
G02 X108.750647 Y30.659186 Z-2.000000 I-4.108496 J2.921903
G02 X108.470444 Y30.518802 Z-2.000000 I-0.361349 J0.371415
G02 X108.216498 Y30.606081 Z-2.000000 I-0.044818 J0.282676
G02 X107.887510 Y31.119980 Z-2.000000 I1.231458 J1.150609
G03 X107.192051 Y32.087905 Z-2.000000 I-2.363611 J-0.964459
G03 X106.710978 Y32.233801 Z-2.000000 I-0.404908 J-0.469045
G03 X106.312651 Y31.969591 Z-2.000000 I0.065848 J-0.531638
G03 X106.023670 Y30.889130 Z-2.000000 I1.875356 J-1.080461
G03 X106.309828 Y29.790209 Z-2.000000 I2.253148 J-0.000000
G03 X106.797490 Y29.504050 Z-2.000000 I0.487662 J0.272448
G02 X107.044014 Y29.378812 Z-2.000000 I0.000000 J-0.305254
G02 X107.363159 Y28.758127 Z-2.000000 I-1.816325 J-1.326312
G02 X107.538675 Y28.034527 Z-2.000000 I-4.359606 J-1.440553
G02 X107.636560 Y26.964740 Z-2.000000 I-8.099952 J-1.280512
G03 X107.728453 Y25.419141 Z-2.000000 I22.984566 J0.591001
G03 X107.820009 Y25.226667 Z-2.000000 I0.308651 J0.028807
G03 X107.945293 Y25.244463 Z-2.000000 I0.055824 J0.056900
G03 X108.404940 Y26.210900 Z-2.000000 I-6.782598 J3.818398
G02 X108.945084 Y27.298755 Z-2.000000 I6.600874 J-2.599453
G02 X109.169072 Y27.517744 Z-2.000000 I0.540605 J-0.328900
G02 X109.370362 Y27.479463 Z-2.000000 I0.078464 J-0.135777
G02 X109.547735 Y27.065512 Z-2.000000 I-0.670660 J-0.532346
G02 X109.544902 Y25.823254 Z-2.000000 I-4.377494 J-0.611150
G02 X108.847600 Y23.040340 Z-2.000000 I-13.911614 J2.006954
G02 X108.297538 Y21.705400 Z-2.000000 I-15.752155 J5.709881
G02 X108.004841 Y21.200890 Z-2.000000 I-2.887917 J1.338293
G02 X107.820479 Y21.004812 Z-2.000000 I-0.802500 J0.569836
G02 X107.736490 Y20.986118 Z-2.000000 I-0.060859 J0.075408
G02 X107.676019 Y21.040874 Z-2.000000 I0.020504 J0.083412
G02 X107.623700 Y21.316720 Z-2.000000 I0.870040 J0.307903
G03 X107.181250 Y22.319788 Z-2.000000 I-1.474482 J-0.051274
G03 X105.625806 Y23.275231 Z-2.000000 I-2.875894 J-2.938064
G03 X103.640935 Y23.723029 Z-2.000000 I-3.115369 J-9.186038
G03 X99.855780 Y23.951130 Z-2.000000 I-3.904628 J-33.274328
G02 X98.365680 Y24.040539 Z-2.000000 I0.047703 J13.256859
G02 X97.514744 Y24.212560 Z-2.000000 I0.605858 J5.187663
G02 X96.892880 Y24.553893 Z-2.000000 I0.454730 J1.565605
G02 X96.853070 Y24.823310 Z-2.000000 I0.139123 J0.158207
G03 X96.959573 Y25.581927 Z-2.000000 I-0.803930 J0.499649
G03 X96.443590 Y26.262890 Z-2.000000 I-1.132455 J-0.322122
G03 X96.062485 Y26.341996 Z-2.000000 I-0.300133 J-0.488366
G03 X95.755551 Y26.181824 Z-2.000000 I0.073483 J-0.514984
G03 X95.552434 Y25.842294 Z-2.000000 I0.689225 J-0.642835
G03 X95.426560 Y25.172460 Z-2.000000 I2.281525 J-0.775485
G02 X95.333689 Y24.457054 Z-2.000000 I-4.234883 J0.186023
G02 X95.241989 Y24.295231 Z-2.000000 I-0.306248 J0.066649
G02 X95.126166 Y24.296797 Z-2.000000 I-0.057100 J0.060805
G02 X94.882960 Y24.662020 Z-2.000000 I0.768757 J0.775513
G03 X94.252694 Y25.334798 Z-2.000000 I-1.188566 J-0.481854
G03 X93.563420 Y25.300060 Z-2.000000 I-0.312899 J-0.647113
G02 X93.199362 Y25.173822 Z-2.000000 I-0.467881 J0.761247
G02 X92.963666 Y25.218694 Z-2.000000 I-0.046479 J0.397308
G02 X92.798605 Y25.390326 Z-2.000000 I0.183358 J0.341524
G02 X92.714200 Y25.756010 Z-2.000000 I0.749955 J0.365684
G02 X92.790012 Y26.094920 Z-2.000000 I0.795436 J-0.000000
G02 X93.014183 Y26.378036 Z-2.000000 I0.717816 J-0.338059
G02 X93.345294 Y26.566188 Z-2.000000 I0.768595 J-0.967154
G02 X93.983466 Y26.743446 Z-2.000000 I1.289720 J-3.405892
G02 X95.307740 Y26.866673 Z-2.000000 I1.367843 J-7.522372
G02 X98.345950 Y26.780070 Z-2.000000 I0.253305 J-44.450284
G03 X99.772360 Y26.837736 Z-2.000000 I0.434539 J6.921785
G03 X100.310638 Y27.154196 Z-2.000000 I-0.118024 J0.816769
G03 X100.546484 Y27.781012 Z-2.000000 I-0.926754 J0.706479
G03 X100.559070 Y29.683230 Z-2.000000 I-15.364587 J1.052812
G03 X100.315644 Y33.050730 Z-2.000000 I-99.276038 J-5.483794
G03 X100.150403 Y33.759415 Z-2.000000 I-2.598293 J-0.232229
G03 X99.969742 Y33.952266 Z-2.000000 I-0.329135 J-0.127284
G03 X99.790043 Y33.936385 Z-2.000000 I-0.076059 J-0.163994
G03 X99.589010 Y33.743925 Z-2.000000 I0.523248 J-0.747774
G03 X99.199980 Y33.197600 Z-2.000000 I7.536559 J-5.778359
G02 X98.578066 Y32.402488 Z-2.000000 I-5.251192 J3.466560
G02 X98.285626 Y32.274215 Z-2.000000 I-0.292439 J0.269217
G02 X97.993188 Y32.402489 Z-2.000000 I-0.000000 J0.397488
G02 X97.371280 Y33.197600 Z-2.000000 I4.629238 J4.261598
G03 X96.873107 Y33.835793 Z-2.000000 I-4.263447 J-2.814510
G03 X96.681271 Y33.949790 Z-2.000000 I-0.285194 J-0.261519
G03 X96.544827 Y33.884014 Z-2.000000 I-0.028607 J-0.115065
G03 X96.442710 Y33.428450 Z-2.000000 I1.027126 J-0.469463
G02 X96.122365 Y32.584068 Z-2.000000 I-1.316743 J0.016593
G02 X95.445110 Y32.274210 Z-2.000000 I-0.677255 J0.585208
G02 X95.085578 Y32.365349 Z-2.000000 I0.000000 J0.754723
G02 X94.919186 Y32.545457 Z-2.000000 I0.181065 J0.334190
G02 X94.886388 Y32.798486 Z-2.000000 I0.409903 J0.181773
G02 X95.035630 Y33.197600 Z-2.000000 I1.067994 J-0.171899
G03 X95.184872 Y33.596714 Z-2.000000 I-0.918749 J0.571011
G03 X95.152073 Y33.849742 Z-2.000000 I-0.442699 J0.071254
G03 X94.985679 Y34.029850 Z-2.000000 I-0.347457 J-0.154084
G03 X94.626140 Y34.120990 Z-2.000000 I-0.359539 J-0.663608
G03 X93.948819 Y33.811149 Z-2.000000 I0.000000 J-0.895240
G03 X93.628550 Y32.966750 Z-2.000000 I0.995746 J-0.860610
G02 X93.522417 Y32.507690 Z-2.000000 I-1.107107 J0.014160
G02 X93.376586 Y32.437156 Z-2.000000 I-0.116645 J0.055145
G02 X93.170272 Y32.553458 Z-2.000000 I0.095231 J0.410082
G02 X92.634190 Y33.197600 Z-2.000000 I3.838833 J3.739983
G03 X92.118114 Y33.706639 Z-2.000000 I-1.685698 J-1.192878
G03 X91.940665 Y33.651041 Z-2.000000 I-0.066924 J-0.097380
G03 X91.880609 Y33.273613 Z-2.000000 I0.883840 J-0.334127
G03 X92.023300 Y31.581670 Z-2.000000 I22.152312 J1.016238
G02 X92.094740 Y30.306539 Z-2.000000 I-9.543136 J-1.174224
G02 X92.013089 Y29.462214 Z-2.000000 I-4.942690 J0.051875
G02 X91.742087 Y28.736184 Z-2.000000 I-2.189466 J0.403658
G02 X91.470040 Y28.580670 Z-2.000000 I-0.272047 J0.160195
G03 X91.112871 Y28.519369 Z-2.000000 I0.000000 J-1.071173
G03 X90.982951 Y28.417156 Z-2.000000 I0.085889 J-0.242846
G03 X90.961194 Y28.269900 Z-2.000000 I0.149306 J-0.097296
G03 X91.107300 Y28.024030 Z-2.000000 I0.550473 J0.160768
G02 X91.245210 Y27.743696 Z-2.000000 I-0.338934 J-0.340827
G02 X91.254029 Y26.980676 Z-2.000000 I-3.309166 J-0.419808
G02 X91.120815 Y26.213629 Z-2.000000 I-5.625655 J0.581917
G02 X90.820760 Y25.253870 Z-2.000000 I-7.858618 J1.930106
G03 X90.492580 Y24.183364 Z-2.000000 I7.728196 J-2.954752
G03 X90.435503 Y23.622878 Z-2.000000 I2.144318 J-0.501519
G03 X90.587354 Y23.186730 Z-2.000000 I0.760811 J0.020380
G03 X90.880060 Y23.040340 Z-2.000000 I0.292706 J0.219437
G02 X91.333780 Y22.943471 Z-2.000000 I-0.000000 J-1.111012
G02 X91.589819 Y22.738143 Z-2.000000 I-0.265436 J-0.593296
G02 X91.726510 Y22.425385 Z-2.000000 I-0.606807 J-0.451453
G02 X91.739895 Y21.959665 Z-2.000000 I-1.476857 J-0.275498
G02 X91.440727 Y21.043709 Z-2.000000 I-2.547251 J0.325144
G02 X90.459110 Y19.742530 Z-2.000000 I-5.045377 J2.785404
G02 X88.662728 Y18.661994 Z-2.000000 I-3.095681 J3.113040
G02 X86.682703 Y18.411570 Z-2.000000 I-1.699662 J5.485773
G02 X84.987416 Y18.938203 Z-2.000000 I0.173541 J3.550615
G02 X84.386600 Y20.039330 Z-2.000000 I0.666191 J1.077976
G02 X84.700375 Y21.529655 Z-2.000000 I4.047012 J-0.073870
G02 X85.623950 Y23.188453 Z-2.000000 I7.885699 J-3.304040
G02 X86.900133 Y24.551257 Z-2.000000 I5.719618 J-4.077137
G02 X87.842240 Y24.887120 Z-2.000000 I0.942107 J-1.153388
G03 X88.597872 Y25.183576 Z-2.000000 I0.000000 J1.111237
G03 X89.335730 Y26.272200 Z-2.000000 I-1.983505 J2.138767
G03 X89.318012 Y27.283509 Z-2.000000 I-1.253825 J0.483843
G03 X88.738640 Y27.671420 Z-2.000000 I-0.587354 J-0.250633
G02 X88.258952 Y27.752080 Z-2.000000 I0.020127 J1.586389
G02 X88.153724 Y27.861581 Z-2.000000 I0.051332 J0.154641
G02 X88.182004 Y28.013705 Z-2.000000 I0.165937 J0.047843
G02 X88.539000 Y28.363960 Z-2.000000 I1.364360 J-1.033558
G03 X89.010236 Y28.876324 Z-2.000000 I-1.041618 J1.430893
G03 X89.429688 Y29.762804 Z-2.000000 I-4.048783 J2.458220
G03 X89.688267 Y30.726997 Z-2.000000 I-6.183144 J2.174974
G03 X89.810430 Y31.733995 Z-2.000000 I-7.666175 J1.440927
G03 X89.556168 Y33.560420 Z-2.000000 I-4.775655 J0.266077
G03 X88.847880 Y33.907810 Z-2.000000 I-0.528849 J-0.182507
G03 X88.102941 Y33.184188 Z-2.000000 I0.387429 J-1.144095
G03 X87.914780 Y31.394910 Z-2.000000 I3.398437 J-1.261914
G02 X87.971770 Y30.410028 Z-2.000000 I-5.540638 J-0.814699
G02 X87.877084 Y30.015721 Z-2.000000 I-0.994236 J0.030228
G02 X87.636031 Y29.835414 Z-2.000000 I-0.290517 J0.137107
G02 X87.218350 Y29.919310 Z-2.000000 I-0.094920 J0.609109
G03 X86.779570 Y30.087691 Z-2.000000 I-0.670118 J-1.090348
G03 X86.475085 Y30.067903 Z-2.000000 I-0.112945 J-0.614546
G03 X86.238350 Y29.901632 Z-2.000000 I0.149681 J-0.464782
G03 X86.098150 Y29.558550 Z-2.000000 I0.550173 J-0.425014
G02 X85.978991 Y28.581055 Z-2.000000 I-151.256213 J17.942411
G02 X85.866000 Y27.703450 Z-2.000000 I-125.089494 J15.659174
G02 X85.579858 Y26.910477 Z-2.000000 I-1.960153 J0.259203
G02 X84.589220 Y25.672000 Z-2.000000 I-5.926170 J3.724811
G03 X84.190618 Y25.110120 Z-2.000000 I1.425731 J-1.433749
G03 X83.769460 Y23.995616 Z-2.000000 I6.366852 J-3.042789
G03 X83.519429 Y22.830221 Z-2.000000 I8.766771 J-2.490396
G03 X83.428500 Y21.586010 Z-2.000000 I8.467015 J-1.244211
G02 X83.301865 Y19.867546 Z-2.000000 I-11.723295 J-0.000000
G02 X83.025754 Y19.199216 Z-2.000000 I-1.476505 J0.218798
G02 X82.467391 Y18.816460 Z-2.000000 I-0.831725 J0.614670
G02 X81.261840 Y18.654250 Z-2.000000 I-1.205551 J4.398739
G02 X79.462968 Y19.050438 Z-2.000000 I0.000000 J4.281943
G02 X79.017880 Y19.693060 Z-2.000000 I0.323986 J0.699845
G01 X79.017950 Y19.693040 Z-2.000000
G00 Z4.000000

(End cutting path id: path323)


(Start cutting path id: path323)
(Change tool to Cylindrical cutter)

G00 Z4.000000
G00 X97.357140 Y19.346770

G01 Z-1.000000 F100.0(Penetrate)
G03 X97.221697 Y19.655418 Z-1.000000 I-0.419394 J0.000000 F400.000000
G03 X96.675221 Y19.998916 Z-1.000000 I-1.203423 J-1.308092
G03 X96.009282 Y20.186683 Z-1.000000 I-1.234568 J-3.103751
G03 X95.035710 Y20.270160 Z-1.000000 I-0.973572 J-5.635539
G02 X93.970761 Y20.386531 Z-1.000000 I-0.000000 J4.931025
G02 X93.333335 Y20.639518 Z-1.000000 I0.464435 J2.099718
G02 X92.875472 Y21.089568 Z-1.000000 I0.695254 J1.165254
G02 X92.714290 Y21.655240 Z-1.000000 I0.912029 J0.565672
G02 X93.106944 Y22.624638 Z-1.000000 I1.392970 J0.000000
G02 X93.906297 Y22.993176 Z-1.000000 I0.876046 J-0.848969
G02 X94.926422 Y22.820651 Z-1.000000 I0.142381 J-2.260326
G02 X96.379080 Y21.886090 Z-1.000000 I-1.936685 J-4.606603
G03 X97.132310 Y21.234669 Z-1.000000 I10.444840 J11.316044
G03 X97.248427 Y21.193547 Z-1.000000 I0.116118 J0.143385
G01 X97.285359 Y21.248766 Z-1.000000
G03 X96.974280 Y21.886090 Z-1.000000 I-5.265412 J-2.175473
G02 X96.787660 Y22.387561 Z-1.000000 I1.459428 J0.828579
G02 X96.800334 Y22.701266 Z-1.000000 I0.657020 J0.130565
G02 X96.963691 Y22.932378 Z-1.000000 I0.410048 J-0.116547
G02 X97.302340 Y23.040320 Z-1.000000 I0.338649 J-0.477254
G02 X97.636107 Y22.900609 Z-1.000000 I0.000000 J-0.468537
G02 X97.996847 Y22.362208 Z-1.000000 I-1.237577 J-1.219255
G02 X98.197097 Y21.697986 Z-1.000000 I-2.909971 J-1.239594
G02 X98.285710 Y20.731850 Z-1.000000 I-5.222520 J-0.966136
G02 X98.243023 Y19.753061 Z-1.000000 I-11.243004 J-0.000000
G02 X98.149330 Y19.101501 Z-1.000000 I-5.894706 J0.515135
G02 X97.955014 Y18.508622 Z-1.000000 I-2.592469 J0.521395
G02 X97.821430 Y18.423390 Z-1.000000 I-0.133584 J0.062069
G02 X97.534207 Y18.600457 Z-1.000000 I0.000000 J0.321487
G02 X97.357140 Y19.346770 Z-1.000000 I1.484267 J0.746313
G01 X97.357140 Y19.346770 Z-1.000000
G00 Z4.000000

(End cutting path id: path323)


(Start cutting path id: path323)
(Change tool to Cylindrical cutter)

G00 Z4.000000
G00 X97.357140 Y19.346770

G01 Z-2.000000 F100.0(Penetrate)
G03 X97.221697 Y19.655418 Z-2.000000 I-0.419394 J0.000000 F400.000000
G03 X96.675221 Y19.998916 Z-2.000000 I-1.203423 J-1.308092
G03 X96.009282 Y20.186683 Z-2.000000 I-1.234568 J-3.103751
G03 X95.035710 Y20.270160 Z-2.000000 I-0.973572 J-5.635539
G02 X93.970761 Y20.386531 Z-2.000000 I-0.000000 J4.931025
G02 X93.333335 Y20.639518 Z-2.000000 I0.464435 J2.099718
G02 X92.875472 Y21.089568 Z-2.000000 I0.695254 J1.165254
G02 X92.714290 Y21.655240 Z-2.000000 I0.912029 J0.565672
G02 X93.106944 Y22.624638 Z-2.000000 I1.392970 J0.000000
G02 X93.906297 Y22.993176 Z-2.000000 I0.876046 J-0.848969
G02 X94.926422 Y22.820651 Z-2.000000 I0.142381 J-2.260326
G02 X96.379080 Y21.886090 Z-2.000000 I-1.936685 J-4.606603
G03 X97.132310 Y21.234669 Z-2.000000 I10.444840 J11.316044
G03 X97.248427 Y21.193547 Z-2.000000 I0.116118 J0.143385
G01 X97.285359 Y21.248766 Z-2.000000
G03 X96.974280 Y21.886090 Z-2.000000 I-5.265412 J-2.175473
G02 X96.787660 Y22.387561 Z-2.000000 I1.459428 J0.828579
G02 X96.800334 Y22.701266 Z-2.000000 I0.657020 J0.130565
G02 X96.963691 Y22.932378 Z-2.000000 I0.410048 J-0.116547
G02 X97.302340 Y23.040320 Z-2.000000 I0.338649 J-0.477254
G02 X97.636107 Y22.900609 Z-2.000000 I0.000000 J-0.468537
G02 X97.996847 Y22.362208 Z-2.000000 I-1.237577 J-1.219255
G02 X98.197097 Y21.697986 Z-2.000000 I-2.909971 J-1.239594
G02 X98.285710 Y20.731850 Z-2.000000 I-5.222520 J-0.966136
G02 X98.243023 Y19.753061 Z-2.000000 I-11.243004 J-0.000000
G02 X98.149330 Y19.101501 Z-2.000000 I-5.894706 J0.515135
G02 X97.955014 Y18.508622 Z-2.000000 I-2.592469 J0.521395
G02 X97.821430 Y18.423390 Z-2.000000 I-0.133584 J0.062069
G02 X97.534207 Y18.600457 Z-2.000000 I0.000000 J0.321487
G02 X97.357140 Y19.346770 Z-2.000000 I1.484267 J0.746313
G01 X97.357140 Y19.346770 Z-2.000000
G00 Z4.000000

(End cutting path id: path323)


(Start cutting path id: path323)
(Change tool to Cylindrical cutter)

G00 Z4.000000
G00 X105.390950 Y19.800220

G01 Z-1.000000 F100.0(Penetrate)
G03 X104.580459 Y20.485714 Z-1.000000 I-4.650451 J-4.676558 F400.000000
G03 X104.204033 Y20.632892 Z-1.000000 I-0.477912 J-0.667348
G03 X103.877775 Y20.526173 Z-1.000000 I-0.049812 J-0.399789
G03 X103.538170 Y20.031070 Z-1.000000 I0.972792 J-1.031289
G02 X103.211897 Y19.527422 Z-1.000000 I-1.494319 J0.610542
G02 X102.956264 Y19.441865 Z-1.000000 I-0.208792 J0.199165
G02 X102.674591 Y19.583654 Z-1.000000 I0.085701 J0.520923
G02 X102.084910 Y20.270160 Z-1.000000 I3.446983 J3.557331
G03 X101.444740 Y21.082013 Z-1.000000 I-8.511006 J-6.052856
G03 X101.274941 Y21.164010 Z-1.000000 I-0.180880 J-0.157758
G03 X101.161014 Y21.074034 Z-1.000000 I-0.005114 J-0.110640
G03 X101.085650 Y20.316360 Z-1.000000 I4.230685 J-0.803401
G02 X100.989754 Y19.625675 Z-1.000000 I-2.746076 J0.029270
G02 X100.842234 Y19.487235 Z-1.000000 I-0.186187 J0.050580
G02 X100.618193 Y19.533485 Z-1.000000 I-0.058130 J0.284173
G02 X99.957140 Y20.085510 Z-1.000000 I2.840222 J4.073004
G02 X99.456549 Y20.759880 Z-1.000000 I1.986252 J1.997395
G02 X99.336555 Y21.216600 Z-1.000000 I0.906575 J0.482307
G02 X99.455823 Y21.656566 Z-1.000000 I0.797776 J0.019884
G02 X99.847075 Y22.054330 Z-1.000000 I1.073529 J-0.664648
G02 X100.961395 Y22.447314 Z-1.000000 I1.389526 J-2.163712
G02 X103.541040 Y22.387070 Z-1.000000 I1.060453 J-9.851748
G02 X106.027549 Y21.435740 Z-1.000000 I-0.972241 J-6.266351
G02 X106.936250 Y20.177640 Z-1.000000 I-1.175355 J-1.806154
G02 X107.194402 Y18.716187 Z-1.000000 I-8.728106 J-2.295267
G02 X107.053438 Y18.518469 Z-1.000000 I-0.185058 J-0.017171
G02 X106.757995 Y18.583381 Z-1.000000 I-0.081516 J0.333781
G02 X105.390950 Y19.800250 Z-1.000000 I10.315924 J12.965343
G01 X105.390950 Y19.800220 Z-1.000000
G00 Z4.000000

(End cutting path id: path323)


(Start cutting path id: path323)
(Change tool to Cylindrical cutter)

G00 Z4.000000
G00 X105.390950 Y19.800220

G01 Z-2.000000 F100.0(Penetrate)
G03 X104.580459 Y20.485714 Z-2.000000 I-4.650451 J-4.676558 F400.000000
G03 X104.204033 Y20.632892 Z-2.000000 I-0.477912 J-0.667348
G03 X103.877775 Y20.526173 Z-2.000000 I-0.049812 J-0.399789
G03 X103.538170 Y20.031070 Z-2.000000 I0.972792 J-1.031289
G02 X103.211897 Y19.527422 Z-2.000000 I-1.494319 J0.610542
G02 X102.956264 Y19.441865 Z-2.000000 I-0.208792 J0.199165
G02 X102.674591 Y19.583654 Z-2.000000 I0.085701 J0.520923
G02 X102.084910 Y20.270160 Z-2.000000 I3.446983 J3.557331
G03 X101.444740 Y21.082013 Z-2.000000 I-8.511006 J-6.052856
G03 X101.274941 Y21.164010 Z-2.000000 I-0.180880 J-0.157758
G03 X101.161014 Y21.074034 Z-2.000000 I-0.005114 J-0.110640
G03 X101.085650 Y20.316360 Z-2.000000 I4.230685 J-0.803401
G02 X100.989754 Y19.625675 Z-2.000000 I-2.746076 J0.029270
G02 X100.842234 Y19.487235 Z-2.000000 I-0.186187 J0.050580
G02 X100.618193 Y19.533485 Z-2.000000 I-0.058130 J0.284173
G02 X99.957140 Y20.085510 Z-2.000000 I2.840222 J4.073004
G02 X99.456549 Y20.759880 Z-2.000000 I1.986252 J1.997395
G02 X99.336555 Y21.216600 Z-2.000000 I0.906575 J0.482307
G02 X99.455823 Y21.656566 Z-2.000000 I0.797776 J0.019884
G02 X99.847075 Y22.054330 Z-2.000000 I1.073529 J-0.664648
G02 X100.961395 Y22.447314 Z-2.000000 I1.389526 J-2.163712
G02 X103.541040 Y22.387070 Z-2.000000 I1.060453 J-9.851748
G02 X106.027549 Y21.435740 Z-2.000000 I-0.972241 J-6.266351
G02 X106.936250 Y20.177640 Z-2.000000 I-1.175355 J-1.806154
G02 X107.194402 Y18.716187 Z-2.000000 I-8.728106 J-2.295267
G02 X107.053438 Y18.518469 Z-2.000000 I-0.185058 J-0.017171
G02 X106.757995 Y18.583381 Z-2.000000 I-0.081516 J0.333781
G02 X105.390950 Y19.800250 Z-2.000000 I10.315924 J12.965343
G01 X105.390950 Y19.800220 Z-2.000000
G00 Z4.000000

(End cutting path id: path323)


(Start cutting path id: path323)
(Change tool to Cylindrical cutter)

G00 Z4.000000
G00 X103.392860 Y26.733870

G01 Z-1.000000 F100.0(Penetrate)
G03 X103.542102 Y27.132984 Z-1.000000 I-0.918749 J0.571011 F400.000000
G03 X103.509302 Y27.386012 Z-1.000000 I-0.442699 J0.071254
G03 X103.342909 Y27.566120 Z-1.000000 I-0.347457 J-0.154084
G03 X102.983370 Y27.657260 Z-1.000000 I-0.359539 J-0.663608
G03 X102.278905 Y27.378354 Z-1.000000 I0.000000 J-1.029129
G03 X102.000000 Y26.733870 Z-1.000000 I0.605175 J-0.644484
G03 X102.161381 Y25.971859 Z-1.000000 I1.879729 J-0.000000
G03 X102.409480 Y25.810480 Z-1.000000 I0.248099 J0.110021
G03 X102.745106 Y25.943358 Z-1.000000 I0.000000 J0.490305
G03 X103.392860 Y26.733870 Z-1.000000 I-2.690508 J2.865275
G01 X103.392860 Y26.733870 Z-1.000000
G00 Z4.000000

(End cutting path id: path323)


(Start cutting path id: path323)
(Change tool to Cylindrical cutter)

G00 Z4.000000
G00 X103.392860 Y26.733870

G01 Z-2.000000 F100.0(Penetrate)
G03 X103.542102 Y27.132984 Z-2.000000 I-0.918749 J0.571011 F400.000000
G03 X103.509302 Y27.386012 Z-2.000000 I-0.442699 J0.071254
G03 X103.342909 Y27.566120 Z-2.000000 I-0.347457 J-0.154084
G03 X102.983370 Y27.657260 Z-2.000000 I-0.359539 J-0.663608
G03 X102.278905 Y27.378354 Z-2.000000 I0.000000 J-1.029129
G03 X102.000000 Y26.733870 Z-2.000000 I0.605175 J-0.644484
G03 X102.161381 Y25.971859 Z-2.000000 I1.879729 J-0.000000
G03 X102.409480 Y25.810480 Z-2.000000 I0.248099 J0.110021
G03 X102.745106 Y25.943358 Z-2.000000 I0.000000 J0.490305
G03 X103.392860 Y26.733870 Z-2.000000 I-2.690508 J2.865275
G01 X103.392860 Y26.733870 Z-2.000000
G00 Z4.000000

(End cutting path id: path323)


(Start cutting path id: path323)
(Change tool to Cylindrical cutter)

G00 Z4.000000
G00 X104.083500 Y31.040880

G01 Z-1.000000 F100.0(Penetrate)
G02 X103.407205 Y31.669204 Z-1.000000 I0.478228 J1.192865 F400.000000
G02 X103.441870 Y32.353060 Z-1.000000 I0.635213 J0.310608
G03 X103.568722 Y32.715160 Z-1.000000 I-0.749549 J0.465854
G03 X103.523712 Y32.949500 Z-1.000000 I-0.391336 J0.046329
G03 X103.351742 Y33.113401 Z-1.000000 I-0.340014 J-0.184584
G03 X102.983370 Y33.197580 Z-1.000000 I-0.368372 J-0.763923
G03 X102.334893 Y32.862688 Z-1.000000 I0.000000 J-0.795294
G03 X102.000000 Y31.812500 Z-1.000000 I1.479192 J-1.050188
G03 X102.441292 Y30.888958 Z-1.000000 I1.187047 J0.000000
G03 X103.625000 Y30.500320 Z-1.000000 I1.104899 J1.368305
G03 X104.337991 Y30.592697 Z-1.000000 I-0.192124 J4.280602
G03 X104.485776 Y30.681301 Z-1.000000 I-0.056616 J0.261980
G03 X104.478713 Y30.792589 Z-1.000000 I-0.061280 J0.051979
G03 X104.083500 Y31.040880 Z-1.000000 I-0.881225 J-0.963993
G01 X104.083500 Y31.040880 Z-1.000000
G00 Z4.000000

(End cutting path id: path323)


(Start cutting path id: path323)
(Change tool to Cylindrical cutter)

G00 Z4.000000
G00 X104.083500 Y31.040880

G01 Z-2.000000 F100.0(Penetrate)
G02 X103.407205 Y31.669204 Z-2.000000 I0.478228 J1.192865 F400.000000
G02 X103.441870 Y32.353060 Z-2.000000 I0.635213 J0.310608
G03 X103.568722 Y32.715160 Z-2.000000 I-0.749549 J0.465854
G03 X103.523712 Y32.949500 Z-2.000000 I-0.391336 J0.046329
G03 X103.351742 Y33.113401 Z-2.000000 I-0.340014 J-0.184584
G03 X102.983370 Y33.197580 Z-2.000000 I-0.368372 J-0.763923
G03 X102.334893 Y32.862688 Z-2.000000 I0.000000 J-0.795294
G03 X102.000000 Y31.812500 Z-2.000000 I1.479192 J-1.050188
G03 X102.441292 Y30.888958 Z-2.000000 I1.187047 J0.000000
G03 X103.625000 Y30.500320 Z-2.000000 I1.104899 J1.368305
G03 X104.337991 Y30.592697 Z-2.000000 I-0.192124 J4.280602
G03 X104.485776 Y30.681301 Z-2.000000 I-0.056616 J0.261980
G03 X104.478713 Y30.792589 Z-2.000000 I-0.061280 J0.051979
G03 X104.083500 Y31.040880 Z-2.000000 I-0.881225 J-0.963993
G01 X104.083500 Y31.040880 Z-2.000000
G00 Z4.000000

(End cutting path id: path323)


(Start cutting path id: path323)
(Change tool to Cylindrical cutter)

G00 Z4.000000
G00 X103.984200 Y34.767340

G01 Z-1.000000 F100.0(Penetrate)
G02 X103.371773 Y35.100364 Z-1.000000 I1.057832 J2.674976 F400.000000
G02 X103.245829 Y35.305967 Z-1.000000 I0.179050 J0.251055
G02 X103.313701 Y35.528482 Z-1.000000 I0.267831 J0.039913
G02 X103.809660 Y35.938570 Z-1.000000 I1.704743 J-1.556759
G03 X103.927164 Y36.086983 Z-1.000000 I-0.144513 J0.235138
G03 X103.899130 Y36.191883 Z-1.000000 I-0.093937 J0.031092
G03 X103.755172 Y36.276077 Z-1.000000 I-0.280007 J-0.313595
G03 X103.336045 Y36.385817 Z-1.000000 I-0.955150 J-2.792727
G03 X102.453580 Y36.490480 Z-1.000000 I-1.250568 J-6.771601
G03 X100.664960 Y36.519340 Z-1.000000 I-1.280501 J-23.920139
G03 X96.945921 Y36.119753 Z-1.000000 I0.463030 J-21.816269
G03 X96.553085 Y35.804805 Z-1.000000 I0.103896 J-0.532056
G03 X96.697394 Y35.481837 Z-1.000000 I0.219171 J-0.095794
G03 X99.910700 Y34.793630 Z-1.000000 I4.800028 J14.566084
G03 X103.733417 Y34.409213 Z-1.000000 I58.063566 J558.196666
G03 X104.465684 Y34.371374 Z-1.000000 I0.784682 J8.080783
G03 X104.667860 Y34.418529 Z-1.000000 I0.002871 J0.444679
G01 X104.670759 Y34.468262 Z-1.000000
G03 X104.505976 Y34.555666 Z-1.000000 I-0.548340 J-0.834751
G03 X103.984200 Y34.767330 Z-1.000000 I-12.299274 J-29.570150
G01 X103.984200 Y34.767340 Z-1.000000
G00 Z4.000000

(End cutting path id: path323)


(Start cutting path id: path323)
(Change tool to Cylindrical cutter)

G00 Z4.000000
G00 X103.984200 Y34.767340

G01 Z-2.000000 F100.0(Penetrate)
G02 X103.371773 Y35.100364 Z-2.000000 I1.057832 J2.674976 F400.000000
G02 X103.245829 Y35.305967 Z-2.000000 I0.179050 J0.251055
G02 X103.313701 Y35.528482 Z-2.000000 I0.267831 J0.039913
G02 X103.809660 Y35.938570 Z-2.000000 I1.704743 J-1.556759
G03 X103.927164 Y36.086983 Z-2.000000 I-0.144513 J0.235138
G03 X103.899130 Y36.191883 Z-2.000000 I-0.093937 J0.031092
G03 X103.755172 Y36.276077 Z-2.000000 I-0.280007 J-0.313595
G03 X103.336045 Y36.385817 Z-2.000000 I-0.955150 J-2.792727
G03 X102.453580 Y36.490480 Z-2.000000 I-1.250568 J-6.771601
G03 X100.664960 Y36.519340 Z-2.000000 I-1.280501 J-23.920139
G03 X96.945921 Y36.119753 Z-2.000000 I0.463030 J-21.816269
G03 X96.553085 Y35.804805 Z-2.000000 I0.103896 J-0.532056
G03 X96.697394 Y35.481837 Z-2.000000 I0.219171 J-0.095794
G03 X99.910700 Y34.793630 Z-2.000000 I4.800028 J14.566084
G03 X103.733417 Y34.409213 Z-2.000000 I58.063566 J558.196666
G03 X104.465684 Y34.371374 Z-2.000000 I0.784682 J8.080783
G03 X104.667860 Y34.418529 Z-2.000000 I0.002871 J0.444679
G01 X104.670759 Y34.468262 Z-2.000000
G03 X104.505976 Y34.555666 Z-2.000000 I-0.548340 J-0.834751
G03 X103.984200 Y34.767330 Z-2.000000 I-12.299274 J-29.570150
G01 X103.984200 Y34.767340 Z-2.000000
G00 Z4.000000

(End cutting path id: path323)


(Start cutting path id: path323)
(Change tool to Cylindrical cutter)

G00 Z4.000000
G00 X103.518480 Y38.459070

G01 Z-1.000000 F100.0(Penetrate)
G02 X103.488565 Y39.017071 Z-1.000000 I0.293900 J0.295559 F400.000000
G02 X104.988720 Y40.273130 Z-1.000000 I3.969808 J-3.217407
G03 X105.836841 Y40.819683 Z-1.000000 I-3.587009 J6.497515
G03 X106.125957 Y41.108696 Z-1.000000 I-0.846795 J1.136211
G03 X106.206418 Y41.276291 Z-1.000000 I-0.388018 J0.289396
G03 X106.192602 Y41.370358 Z-1.000000 I-0.118093 J0.030704
G03 X106.116068 Y41.432552 Z-1.000000 I-0.125516 J-0.076269
G03 X105.885370 Y41.475340 Z-1.000000 I-0.250826 J-0.709047
G03 X104.709938 Y41.311211 Z-1.000000 I-0.096443 J-3.600380
G03 X102.755450 Y40.492550 Z-1.000000 I3.439745 J-10.954542
G02 X101.711869 Y39.996692 Z-1.000000 I-5.967073 J11.212201
G02 X101.424534 Y39.938735 Z-1.000000 I-0.287335 J0.683283
G02 X101.324904 Y40.050209 Z-1.000000 I0.000000 J0.100259
G02 X101.478440 Y40.492550 Z-1.000000 I1.056642 J-0.118942
G03 X101.653822 Y40.934337 Z-1.000000 I-1.138876 J0.707819
G03 X101.635321 Y41.209754 Z-1.000000 I-0.513108 J0.103863
G03 X101.475199 Y41.409236 Z-1.000000 I-0.359784 J-0.124790
G03 X101.126210 Y41.508060 Z-1.000000 I-0.348989 J-0.566797
G03 X100.579627 Y41.370271 Z-1.000000 I-0.000000 J-1.152992
G03 X100.288468 Y41.093938 Z-1.000000 I0.362763 J-0.673782
G03 X100.150841 Y40.685250 Z-1.000000 I0.839427 J-0.510197
G03 X100.178580 Y40.148981 Z-1.000000 I1.727621 J-0.179488
G03 X100.650264 Y39.165445 Z-1.000000 I2.242810 J0.470733
G03 X101.767840 Y38.451030 Z-1.000000 I1.656744 J1.360351
G02 X103.392176 Y38.026265 Z-1.000000 I-137.468084 J-529.007967
G02 X103.779750 Y37.921630 Z-1.000000 I-8.006085 J-30.424965
G03 X103.845772 Y38.000951 Z-1.000000 I0.015104 J0.054566
G03 X103.518480 Y38.459070 Z-1.000000 I-1.515784 J-0.736943
G01 X103.518480 Y38.459070 Z-1.000000
G00 Z4.000000

(End cutting path id: path323)


(Start cutting path id: path323)
(Change tool to Cylindrical cutter)

G00 Z4.000000
G00 X103.518480 Y38.459070

G01 Z-2.000000 F100.0(Penetrate)
G02 X103.488565 Y39.017071 Z-2.000000 I0.293900 J0.295559 F400.000000
G02 X104.988720 Y40.273130 Z-2.000000 I3.969808 J-3.217407
G03 X105.836841 Y40.819683 Z-2.000000 I-3.587009 J6.497515
G03 X106.125957 Y41.108696 Z-2.000000 I-0.846795 J1.136211
G03 X106.206418 Y41.276291 Z-2.000000 I-0.388018 J0.289396
G03 X106.192602 Y41.370358 Z-2.000000 I-0.118093 J0.030704
G03 X106.116068 Y41.432552 Z-2.000000 I-0.125516 J-0.076269
G03 X105.885370 Y41.475340 Z-2.000000 I-0.250826 J-0.709047
G03 X104.709938 Y41.311211 Z-2.000000 I-0.096443 J-3.600380
G03 X102.755450 Y40.492550 Z-2.000000 I3.439745 J-10.954542
G02 X101.711869 Y39.996692 Z-2.000000 I-5.967073 J11.212201
G02 X101.424534 Y39.938735 Z-2.000000 I-0.287335 J0.683283
G02 X101.324904 Y40.050209 Z-2.000000 I0.000000 J0.100259
G02 X101.478440 Y40.492550 Z-2.000000 I1.056642 J-0.118942
G03 X101.653822 Y40.934337 Z-2.000000 I-1.138876 J0.707819
G03 X101.635321 Y41.209754 Z-2.000000 I-0.513108 J0.103863
G03 X101.475199 Y41.409236 Z-2.000000 I-0.359784 J-0.124790
G03 X101.126210 Y41.508060 Z-2.000000 I-0.348989 J-0.566797
G03 X100.579627 Y41.370271 Z-2.000000 I-0.000000 J-1.152992
G03 X100.288468 Y41.093938 Z-2.000000 I0.362763 J-0.673782
G03 X100.150841 Y40.685250 Z-2.000000 I0.839427 J-0.510197
G03 X100.178580 Y40.148981 Z-2.000000 I1.727621 J-0.179488
G03 X100.650264 Y39.165445 Z-2.000000 I2.242810 J0.470733
G03 X101.767840 Y38.451030 Z-2.000000 I1.656744 J1.360351
G02 X103.392176 Y38.026265 Z-2.000000 I-137.468084 J-529.007967
G02 X103.779750 Y37.921630 Z-2.000000 I-8.006085 J-30.424965
G03 X103.845772 Y38.000951 Z-2.000000 I0.015104 J0.054566
G03 X103.518480 Y38.459070 Z-2.000000 I-1.515784 J-0.736943
G01 X103.518480 Y38.459070 Z-2.000000
G00 Z4.000000

(End cutting path id: path323)


(Start cutting path id: path323)
(Change tool to Cylindrical cutter)

G00 Z4.000000
G00 X107.223850 Y38.306670

G01 Z-1.000000 F100.0(Penetrate)
G03 X106.502238 Y39.371375 Z-1.000000 I-2.661708 J-1.027100 F400.000000
G03 X105.763320 Y39.661290 Z-1.000000 I-0.738918 J-0.796699
G03 X105.483332 Y39.503856 Z-1.000000 I0.000000 J-0.327689
G03 X105.366357 Y39.022605 Z-1.000000 I0.698165 J-0.424540
G03 X105.481938 Y38.414070 Z-1.000000 I2.619174 J0.182221
G03 X105.931210 Y37.248090 Z-1.000000 I9.638088 J3.044175
G03 X106.416869 Y36.391695 Z-1.000000 I5.196116 J2.380796
G03 X106.739418 Y36.034156 Z-1.000000 I1.508883 J1.036957
G03 X107.125775 Y35.854953 Z-1.000000 I0.516149 J0.606716
G03 X107.360864 Y35.917808 Z-1.000000 I0.048091 J0.291200
G03 X107.583760 Y36.390276 Z-1.000000 I-0.385420 J0.470642
G03 X107.223850 Y38.306670 Z-1.000000 I-5.367832 J-0.016118
G01 X107.223850 Y38.306670 Z-1.000000
G00 Z4.000000

(End cutting path id: path323)


(Start cutting path id: path323)
(Change tool to Cylindrical cutter)

G00 Z4.000000
G00 X107.223850 Y38.306670

G01 Z-2.000000 F100.0(Penetrate)
G03 X106.502238 Y39.371375 Z-2.000000 I-2.661708 J-1.027100 F400.000000
G03 X105.763320 Y39.661290 Z-2.000000 I-0.738918 J-0.796699
G03 X105.483332 Y39.503856 Z-2.000000 I0.000000 J-0.327689
G03 X105.366357 Y39.022605 Z-2.000000 I0.698165 J-0.424540
G03 X105.481938 Y38.414070 Z-2.000000 I2.619174 J0.182221
G03 X105.931210 Y37.248090 Z-2.000000 I9.638088 J3.044175
G03 X106.416869 Y36.391695 Z-2.000000 I5.196116 J2.380796
G03 X106.739418 Y36.034156 Z-2.000000 I1.508883 J1.036957
G03 X107.125775 Y35.854953 Z-2.000000 I0.516149 J0.606716
G03 X107.360864 Y35.917808 Z-2.000000 I0.048091 J0.291200
G03 X107.583760 Y36.390276 Z-2.000000 I-0.385420 J0.470642
G03 X107.223850 Y38.306670 Z-2.000000 I-5.367832 J-0.016118
G01 X107.223850 Y38.306670 Z-2.000000
G00 Z4.000000

(End cutting path id: path323)


(Start cutting path id: path323)
(Change tool to Cylindrical cutter)

G00 Z4.000000
G00 X104.879970 Y43.234780

G01 Z-1.000000 F100.0(Penetrate)
G03 X105.317832 Y42.661011 Z-1.000000 I3.600158 J2.293441 F400.000000
G03 X105.486499 Y42.565200 Z-1.000000 I0.230012 J0.208548
G03 X105.607424 Y42.628953 Z-1.000000 I0.021370 J0.106027
G03 X105.700050 Y43.069490 Z-1.000000 I-1.072975 J0.455605
G03 X105.337481 Y44.236857 Z-1.000000 I-1.978423 J0.025515
G03 X104.581932 Y44.748291 Z-1.000000 I-1.055993 J-0.746224
G03 X103.559398 Y44.730434 Z-1.000000 I-0.476584 J-1.994972
G03 X101.936470 Y43.968570 Z-1.000000 I1.414633 J-5.122978
G03 X100.987931 Y43.200400 Z-1.000000 I4.826840 J-6.929909
G03 X100.743462 Y42.840904 Z-1.000000 I0.679490 J-0.724947
G03 X100.791403 Y42.519893 Z-1.000000 I0.301147 J-0.119112
G03 X101.238420 Y42.203700 Z-1.000000 I0.769140 J0.613289
G03 X102.289559 Y42.255315 Z-1.000000 I0.461455 J1.331516
G03 X103.269190 Y43.139330 Z-1.000000 I-0.927024 J2.012093
G02 X103.804633 Y43.878589 Z-1.000000 I4.248259 J-2.513461
G02 X104.074280 Y44.010598 Z-1.000000 I0.292654 J-0.256388
G02 X104.347640 Y43.905108 Z-1.000000 I0.020897 J-0.352779
G02 X104.879970 Y43.234730 Z-1.000000 I-2.947344 J-2.886952
G01 X104.879970 Y43.234780 Z-1.000000
G00 Z4.000000

(End cutting path id: path323)


(Start cutting path id: path323)
(Change tool to Cylindrical cutter)

G00 Z4.000000
G00 X104.879970 Y43.234780

G01 Z-2.000000 F100.0(Penetrate)
G03 X105.317832 Y42.661011 Z-2.000000 I3.600158 J2.293441 F400.000000
G03 X105.486499 Y42.565200 Z-2.000000 I0.230012 J0.208548
G03 X105.607424 Y42.628953 Z-2.000000 I0.021370 J0.106027
G03 X105.700050 Y43.069490 Z-2.000000 I-1.072975 J0.455605
G03 X105.337481 Y44.236857 Z-2.000000 I-1.978423 J0.025515
G03 X104.581932 Y44.748291 Z-2.000000 I-1.055993 J-0.746224
G03 X103.559398 Y44.730434 Z-2.000000 I-0.476584 J-1.994972
G03 X101.936470 Y43.968570 Z-2.000000 I1.414633 J-5.122978
G03 X100.987931 Y43.200400 Z-2.000000 I4.826840 J-6.929909
G03 X100.743462 Y42.840904 Z-2.000000 I0.679490 J-0.724947
G03 X100.791403 Y42.519893 Z-2.000000 I0.301147 J-0.119112
G03 X101.238420 Y42.203700 Z-2.000000 I0.769140 J0.613289
G03 X102.289559 Y42.255315 Z-2.000000 I0.461455 J1.331516
G03 X103.269190 Y43.139330 Z-2.000000 I-0.927024 J2.012093
G02 X103.804633 Y43.878589 Z-2.000000 I4.248259 J-2.513461
G02 X104.074280 Y44.010598 Z-2.000000 I0.292654 J-0.256388
G02 X104.347640 Y43.905108 Z-2.000000 I0.020897 J-0.352779
G02 X104.879970 Y43.234730 Z-2.000000 I-2.947344 J-2.886952
G01 X104.879970 Y43.234780 Z-2.000000
G00 Z4.000000

(End cutting path id: path323)


(Start cutting path id: path323)
(Change tool to Cylindrical cutter)

G00 Z4.000000
G00 X103.338180 Y45.692670

G01 Z-1.000000 F100.0(Penetrate)
G03 X104.043818 Y46.313223 Z-1.000000 I-3.697273 J4.915682 F400.000000
G03 X104.286274 Y46.650145 Z-1.000000 I-0.999215 J0.974755
G03 X104.343701 Y46.835650 Z-1.000000 I-0.497953 J0.255793
G03 X104.321834 Y46.941414 Z-1.000000 I-0.165439 J0.020938
G03 X104.240925 Y47.009948 Z-1.000000 I-0.139089 J-0.082178
G03 X104.034600 Y47.048390 Z-1.000000 I-0.206325 J-0.534471
G02 X103.243099 Y47.303872 Z-1.000000 I0.000000 J1.353805
G02 X103.073610 Y47.740930 Z-1.000000 I0.251430 J0.348896
G03 X103.042071 Y48.413143 Z-1.000000 I-1.313610 J0.275214
G03 X102.144360 Y50.741940 Z-1.000000 I-17.637700 J-5.461602
G03 X101.437758 Y52.078174 Z-1.000000 I-13.479826 J-6.273201
G03 X101.293450 Y52.070815 Z-1.000000 I-0.070209 J-0.041826
G03 X101.229683 Y51.742368 Z-1.000000 I0.628858 J-0.292504
G03 X101.409110 Y49.161230 Z-1.000000 I73.598163 J3.819338
G02 X101.469508 Y47.406115 Z-1.000000 I-16.650453 J-1.451579
G02 X101.365210 Y46.237935 Z-1.000000 I-8.278419 J0.150369
G02 X101.039268 Y45.161411 Z-1.000000 I-4.153728 J0.670029
G02 X100.713360 Y44.848030 Z-1.000000 I-0.558785 J0.254964
G03 X100.321384 Y44.634082 Z-1.000000 I0.765936 J-1.869318
G03 X100.255298 Y44.535787 Z-1.000000 I0.094237 J-0.134722
G03 X100.293611 Y44.457638 Z-1.000000 I0.067551 J-0.015349
G03 X100.607130 Y44.380490 Z-1.000000 I0.352641 J0.757458
G03 X101.468317 Y44.555564 Z-1.000000 I0.083904 J1.792903
G03 X103.338180 Y45.692670 Z-1.000000 I-4.819303 J10.030846
G01 X103.338180 Y45.692670 Z-1.000000
G00 Z4.000000

(End cutting path id: path323)


(Start cutting path id: path323)
(Change tool to Cylindrical cutter)

G00 Z4.000000
G00 X103.338180 Y45.692670

G01 Z-2.000000 F100.0(Penetrate)
G03 X104.043818 Y46.313223 Z-2.000000 I-3.697273 J4.915682 F400.000000
G03 X104.286274 Y46.650145 Z-2.000000 I-0.999215 J0.974755
G03 X104.343701 Y46.835650 Z-2.000000 I-0.497953 J0.255793
G03 X104.321834 Y46.941414 Z-2.000000 I-0.165439 J0.020938
G03 X104.240925 Y47.009948 Z-2.000000 I-0.139089 J-0.082178
G03 X104.034600 Y47.048390 Z-2.000000 I-0.206325 J-0.534471
G02 X103.243099 Y47.303872 Z-2.000000 I0.000000 J1.353805
G02 X103.073610 Y47.740930 Z-2.000000 I0.251430 J0.348896
G03 X103.042071 Y48.413143 Z-2.000000 I-1.313610 J0.275214
G03 X102.144360 Y50.741940 Z-2.000000 I-17.637700 J-5.461602
G03 X101.437758 Y52.078174 Z-2.000000 I-13.479826 J-6.273201
G03 X101.293450 Y52.070815 Z-2.000000 I-0.070209 J-0.041826
G03 X101.229683 Y51.742368 Z-2.000000 I0.628858 J-0.292504
G03 X101.409110 Y49.161230 Z-2.000000 I73.598163 J3.819338
G02 X101.469508 Y47.406115 Z-2.000000 I-16.650453 J-1.451579
G02 X101.365210 Y46.237935 Z-2.000000 I-8.278419 J0.150369
G02 X101.039268 Y45.161411 Z-2.000000 I-4.153728 J0.670029
G02 X100.713360 Y44.848030 Z-2.000000 I-0.558785 J0.254964
G03 X100.321384 Y44.634082 Z-2.000000 I0.765936 J-1.869318
G03 X100.255298 Y44.535787 Z-2.000000 I0.094237 J-0.134722
G03 X100.293611 Y44.457638 Z-2.000000 I0.067551 J-0.015349
G03 X100.607130 Y44.380490 Z-2.000000 I0.352641 J0.757458
G03 X101.468317 Y44.555564 Z-2.000000 I0.083904 J1.792903
G03 X103.338180 Y45.692670 Z-2.000000 I-4.819303 J10.030846
G01 X103.338180 Y45.692670 Z-2.000000
G00 Z4.000000

(End cutting path id: path323)


(Start cutting path id: path323)
(Change tool to Cylindrical cutter)

G00 Z4.000000
G00 X96.117250 Y53.030190

G01 Z-1.000000 F100.0(Penetrate)
G03 X95.249448 Y53.748269 Z-1.000000 I-4.354159 J-4.378611 F400.000000
G03 X94.911567 Y53.791709 Z-1.000000 I-0.211480 J-0.309162
G03 X94.651288 Y53.547106 Z-1.000000 I0.151136 J-0.421604
G03 X94.241640 Y52.357820 Z-1.000000 I7.754942 J-3.336376
G03 X94.257261 Y50.575724 Z-1.000000 I3.279298 J-0.862371
G03 X94.819860 Y49.714308 Z-1.000000 I1.654790 J0.466330
G03 X95.275255 Y49.481899 Z-1.000000 I0.756087 J0.919155
G03 X95.759524 Y49.483318 Z-1.000000 I0.239449 J0.917019
G03 X96.188084 Y49.709551 Z-1.000000 I-0.281234 J1.051784
G03 X96.700740 Y50.334990 Z-1.000000 I-1.522446 J1.770735
G03 X96.893334 Y51.611938 Z-1.000000 I-1.585151 J0.892077
G03 X96.117250 Y53.030190 Z-1.000000 I-2.786265 J-0.603209
G01 X96.117250 Y53.030190 Z-1.000000
G00 Z4.000000

(End cutting path id: path323)


(Start cutting path id: path323)
(Change tool to Cylindrical cutter)

G00 Z4.000000
G00 X96.117250 Y53.030190

G01 Z-2.000000 F100.0(Penetrate)
G03 X95.249448 Y53.748269 Z-2.000000 I-4.354159 J-4.378611 F400.000000
G03 X94.911567 Y53.791709 Z-2.000000 I-0.211480 J-0.309162
G03 X94.651288 Y53.547106 Z-2.000000 I0.151136 J-0.421604
G03 X94.241640 Y52.357820 Z-2.000000 I7.754942 J-3.336376
G03 X94.257261 Y50.575724 Z-2.000000 I3.279298 J-0.862371
G03 X94.819860 Y49.714308 Z-2.000000 I1.654790 J0.466330
G03 X95.275255 Y49.481899 Z-2.000000 I0.756087 J0.919155
G03 X95.759524 Y49.483318 Z-2.000000 I0.239449 J0.917019
G03 X96.188084 Y49.709551 Z-2.000000 I-0.281234 J1.051784
G03 X96.700740 Y50.334990 Z-2.000000 I-1.522446 J1.770735
G03 X96.893334 Y51.611938 Z-2.000000 I-1.585151 J0.892077
G03 X96.117250 Y53.030190 Z-2.000000 I-2.786265 J-0.603209
G01 X96.117250 Y53.030190 Z-2.000000
G00 Z4.000000

(End cutting path id: path323)


(Start cutting path id: path323)
(Change tool to Cylindrical cutter)

G00 Z4.000000
G00 X99.213390 Y56.745010

G01 Z-1.000000 F100.0(Penetrate)
G02 X98.686405 Y57.487113 Z-1.000000 I4.484856 J3.742966 F400.000000
G02 X98.587385 Y57.795786 Z-1.000000 I0.612383 J0.366667
G02 X98.693433 Y58.009852 Z-1.000000 I0.231056 J0.018836
G02 X99.100570 Y58.129030 Z-1.000000 I0.407137 J-0.635842
G03 X99.847357 Y58.424513 Z-1.000000 I0.000000 J1.091435
G03 X100.142840 Y59.106920 Z-1.000000 I-0.640256 J0.682407
G03 X100.051490 Y59.463780 Z-1.000000 I-0.742711 J-0.000000
G03 X99.870071 Y59.629906 Z-1.000000 I-0.334672 J-0.183356
G03 X99.615513 Y59.662599 Z-1.000000 I-0.182963 J-0.417233
G03 X99.214270 Y59.514110 Z-1.000000 I0.172066 J-1.081312
G02 X98.813022 Y59.365626 Z-1.000000 I-0.573319 J0.932888
G02 X98.558465 Y59.398319 Z-1.000000 I-0.071593 J0.449925
G02 X98.377050 Y59.564444 Z-1.000000 I0.153251 J0.349474
G02 X98.285700 Y59.921310 Z-1.000000 I0.651387 J0.356866
G02 X98.380664 Y60.453217 Z-1.000000 I1.537130 J0.000000
G02 X98.562241 Y60.717071 Z-1.000000 I0.608757 J-0.224525
G02 X98.851332 Y60.855296 Z-1.000000 I0.391716 J-0.447835
G02 X99.255933 Y60.844935 Z-1.000000 I0.176607 J-1.008550
G02 X100.018130 Y60.473787 Z-1.000000 I-0.416518 J-1.823577
G02 X101.079170 Y59.283270 Z-1.000000 I-3.132475 J-3.859877
G03 X101.614263 Y58.526473 Z-1.000000 I8.049737 J5.123993
G03 X101.744498 Y58.431769 Z-1.000000 I0.231017 J0.180789
G01 X101.806786 Y58.477837 Z-1.000000
G03 X101.710210 Y59.052420 Z-1.000000 I-2.579859 J-0.138216
G02 X101.639323 Y59.659376 Z-1.000000 I1.807060 J0.518665
G02 X101.782606 Y60.896385 Z-1.000000 I9.108469 J-0.428233
G02 X102.068708 Y62.102158 Z-1.000000 I12.358079 J-2.295456
G02 X102.514920 Y63.384750 Z-1.000000 I12.423116 J-3.603070
G03 X103.097154 Y65.033555 Z-1.000000 I-16.918221 J6.901447
G03 X103.218886 Y65.776068 Z-1.000000 I-2.799146 J0.840145
G03 X103.046011 Y66.391309 Z-1.000000 I-1.055643 J0.035286
G03 X102.626440 Y66.721040 Z-1.000000 I-0.701572 J-0.460915
G02 X102.048055 Y67.235650 Z-1.000000 I0.346674 J0.971974
G02 X102.121580 Y67.742150 Z-1.000000 I0.404307 J0.199896
G02 X102.717500 Y67.880673 Z-1.000000 I0.400316 J-0.371067
G02 X104.111270 Y66.978270 Z-1.000000 I-1.440132 J-3.751842
G03 X105.034789 Y66.176995 Z-1.000000 I6.348015 J6.383635
G03 X105.358416 Y66.100198 Z-1.000000 I0.249277 J0.330175
G03 X105.607464 Y66.294520 Z-1.000000 I-0.061247 J0.335249
G03 X105.971550 Y67.318120 Z-1.000000 I-5.854447 J2.658928
G03 X105.993792 Y69.069459 Z-1.000000 I-3.499400 J0.920253
G03 X105.444094 Y70.042275 Z-1.000000 I-1.950112 J-0.460215
G03 X104.521612 Y70.437112 Z-1.000000 I-0.971040 J-0.993656
G03 X103.229220 Y69.998030 Z-1.000000 I-0.067271 J-1.923548
G02 X102.528735 Y69.570670 Z-1.000000 I-1.843140 J2.233323
G02 X102.256749 Y69.604839 Z-1.000000 I-0.106875 J0.248861
G02 X102.094092 Y69.872959 Z-1.000000 I0.264403 J0.343799
G02 X101.999980 Y70.943390 Z-1.000000 I6.040467 J1.070431
G03 X101.583163 Y72.508254 Z-1.000000 I-3.145910 J0.000000
G03 X101.075581 Y72.864240 Z-1.000000 I-0.633307 J-0.363138
G03 X100.752365 Y72.822359 Z-1.000000 I-0.094375 J-0.539810
G03 X100.406782 Y72.541357 Z-1.000000 I0.373135 J-0.811896
G03 X100.192644 Y72.122957 Z-1.000000 I1.163684 J-0.859576
G03 X100.032870 Y71.287300 Z-1.000000 I3.357306 J-1.075003
G03 X99.994205 Y69.675634 Z-1.000000 I18.290859 J-1.245102
G03 X100.081870 Y68.832600 Z-1.000000 I5.073022 J0.101453
G02 X99.940774 Y68.124387 Z-1.000000 I-0.947199 J-0.179453
G02 X99.031120 Y67.230810 Z-1.000000 I-2.512941 J1.648354
G03 X98.481503 Y66.785681 Z-1.000000 I1.602123 J-2.540082
G03 X98.464176 Y66.634383 Z-1.000000 I0.089212 J-0.086858
G03 X98.618035 Y66.530120 Z-1.000000 I0.190226 J0.115060
G03 X99.501190 Y66.453650 Z-1.000000 I0.931086 J5.615088
G02 X100.184825 Y66.349929 Z-1.000000 I-0.020843 J-2.442175
G02 X100.516949 Y66.160941 Z-1.000000 I-0.247325 J-0.820976
G02 X100.667088 Y65.864583 Z-1.000000 I-0.318823 J-0.347731
G02 X100.576810 Y65.467380 Z-1.000000 I-0.620080 J-0.067927
G02 X99.839830 Y64.862109 Z-1.000000 I-1.260379 J0.783332
G02 X98.921830 Y64.843570 Z-1.000000 I-0.485183 J1.287211
G02 X98.556909 Y65.128596 Z-1.000000 I0.216590 J0.653422
G02 X98.148678 Y65.987268 Z-1.000000 I3.329538 J2.109310
G02 X97.901113 Y66.941700 Z-1.000000 I6.772002 J2.265878
G02 X97.743635 Y68.103730 Z-1.000000 I11.532112 J2.154510
G02 X97.706056 Y69.277240 Z-1.000000 I11.107391 J0.943050
G02 X97.795815 Y70.143333 Z-1.000000 I5.276103 J-0.109101
G02 X98.072452 Y70.873741 Z-1.000000 I2.189646 J-0.411722
G02 X98.394330 Y71.056450 Z-1.000000 I0.321878 J-0.192172
G03 X98.981771 Y71.288932 Z-1.000000 I-0.000000 J0.858419
G03 X99.214250 Y71.825940 Z-1.000000 I-0.503981 J0.537008
G03 X98.928714 Y72.309897 Z-1.000000 I-0.552898 J-0.000000
G03 X97.821390 Y72.595430 Z-1.000000 I-1.107324 J-2.004384
G03 X97.232596 Y72.402915 Z-1.000000 I-0.000000 J-0.996649
G03 X96.740153 Y71.796044 Z-1.000000 I0.907894 J-1.239939
G03 X96.487935 Y70.961245 Z-1.000000 I3.037623 J-1.373256
G03 X96.325530 Y69.286620 Z-1.000000 I12.672820 J-2.074197
G02 X96.192685 Y65.979187 Z-1.000000 I-183.860300 J5.728459
G02 X95.911290 Y60.865630 Z-1.000000 I-438.506865 J21.566187
G03 X95.792972 Y57.437006 Z-1.000000 I65.079051 J-3.962166
G03 X95.976509 Y56.440025 Z-1.000000 I2.680433 J-0.021935
G03 X96.254079 Y56.025723 Z-1.000000 I1.073946 J0.419379
G03 X96.651795 Y55.775404 Z-1.000000 I0.813869 J0.851995
G03 X97.144158 Y55.649985 Z-1.000000 I0.805964 J2.134847
G03 X97.984250 Y55.557210 Z-1.000000 I2.083667 J15.017977
G03 X99.423354 Y55.521415 Z-1.000000 I1.031829 J12.537056
G03 X99.724105 Y55.648696 Z-1.000000 I-0.014696 J0.453688
G03 X99.767126 Y55.906841 Z-1.000000 I-0.152815 J0.158124
G03 X99.213360 Y56.745010 Z-1.000000 I-4.014814 J-2.050512
G01 X99.213390 Y56.745010 Z-1.000000
G00 Z4.000000

(End cutting path id: path323)


(Start cutting path id: path323)
(Change tool to Cylindrical cutter)

G00 Z4.000000
G00 X99.213390 Y56.745010

G01 Z-2.000000 F100.0(Penetrate)
G02 X98.686405 Y57.487113 Z-2.000000 I4.484856 J3.742966 F400.000000
G02 X98.587385 Y57.795786 Z-2.000000 I0.612383 J0.366667
G02 X98.693433 Y58.009852 Z-2.000000 I0.231056 J0.018836
G02 X99.100570 Y58.129030 Z-2.000000 I0.407137 J-0.635842
G03 X99.847357 Y58.424513 Z-2.000000 I0.000000 J1.091435
G03 X100.142840 Y59.106920 Z-2.000000 I-0.640256 J0.682407
G03 X100.051490 Y59.463780 Z-2.000000 I-0.742711 J-0.000000
G03 X99.870071 Y59.629906 Z-2.000000 I-0.334672 J-0.183356
G03 X99.615513 Y59.662599 Z-2.000000 I-0.182963 J-0.417233
G03 X99.214270 Y59.514110 Z-2.000000 I0.172066 J-1.081312
G02 X98.813022 Y59.365626 Z-2.000000 I-0.573319 J0.932888
G02 X98.558465 Y59.398319 Z-2.000000 I-0.071593 J0.449925
G02 X98.377050 Y59.564444 Z-2.000000 I0.153251 J0.349474
G02 X98.285700 Y59.921310 Z-2.000000 I0.651387 J0.356866
G02 X98.380664 Y60.453217 Z-2.000000 I1.537130 J0.000000
G02 X98.562241 Y60.717071 Z-2.000000 I0.608757 J-0.224525
G02 X98.851332 Y60.855296 Z-2.000000 I0.391716 J-0.447835
G02 X99.255933 Y60.844935 Z-2.000000 I0.176607 J-1.008550
G02 X100.018130 Y60.473787 Z-2.000000 I-0.416518 J-1.823577
G02 X101.079170 Y59.283270 Z-2.000000 I-3.132475 J-3.859877
G03 X101.614263 Y58.526473 Z-2.000000 I8.049737 J5.123993
G03 X101.744498 Y58.431769 Z-2.000000 I0.231017 J0.180789
G01 X101.806786 Y58.477837 Z-2.000000
G03 X101.710210 Y59.052420 Z-2.000000 I-2.579859 J-0.138216
G02 X101.639323 Y59.659376 Z-2.000000 I1.807060 J0.518665
G02 X101.782606 Y60.896385 Z-2.000000 I9.108469 J-0.428233
G02 X102.068708 Y62.102158 Z-2.000000 I12.358079 J-2.295456
G02 X102.514920 Y63.384750 Z-2.000000 I12.423116 J-3.603070
G03 X103.097154 Y65.033555 Z-2.000000 I-16.918221 J6.901447
G03 X103.218886 Y65.776068 Z-2.000000 I-2.799146 J0.840145
G03 X103.046011 Y66.391309 Z-2.000000 I-1.055643 J0.035286
G03 X102.626440 Y66.721040 Z-2.000000 I-0.701572 J-0.460915
G02 X102.048055 Y67.235650 Z-2.000000 I0.346674 J0.971974
G02 X102.121580 Y67.742150 Z-2.000000 I0.404307 J0.199896
G02 X102.717500 Y67.880673 Z-2.000000 I0.400316 J-0.371067
G02 X104.111270 Y66.978270 Z-2.000000 I-1.440132 J-3.751842
G03 X105.034789 Y66.176995 Z-2.000000 I6.348015 J6.383635
G03 X105.358416 Y66.100198 Z-2.000000 I0.249277 J0.330175
G03 X105.607464 Y66.294520 Z-2.000000 I-0.061247 J0.335249
G03 X105.971550 Y67.318120 Z-2.000000 I-5.854447 J2.658928
G03 X105.993792 Y69.069459 Z-2.000000 I-3.499400 J0.920253
G03 X105.444094 Y70.042275 Z-2.000000 I-1.950112 J-0.460215
G03 X104.521612 Y70.437112 Z-2.000000 I-0.971040 J-0.993656
G03 X103.229220 Y69.998030 Z-2.000000 I-0.067271 J-1.923548
G02 X102.528735 Y69.570670 Z-2.000000 I-1.843140 J2.233323
G02 X102.256749 Y69.604839 Z-2.000000 I-0.106875 J0.248861
G02 X102.094092 Y69.872959 Z-2.000000 I0.264403 J0.343799
G02 X101.999980 Y70.943390 Z-2.000000 I6.040467 J1.070431
G03 X101.583163 Y72.508254 Z-2.000000 I-3.145910 J0.000000
G03 X101.075581 Y72.864240 Z-2.000000 I-0.633307 J-0.363138
G03 X100.752365 Y72.822359 Z-2.000000 I-0.094375 J-0.539810
G03 X100.406782 Y72.541357 Z-2.000000 I0.373135 J-0.811896
G03 X100.192644 Y72.122957 Z-2.000000 I1.163684 J-0.859576
G03 X100.032870 Y71.287300 Z-2.000000 I3.357306 J-1.075003
G03 X99.994205 Y69.675634 Z-2.000000 I18.290859 J-1.245102
G03 X100.081870 Y68.832600 Z-2.000000 I5.073022 J0.101453
G02 X99.940774 Y68.124387 Z-2.000000 I-0.947199 J-0.179453
G02 X99.031120 Y67.230810 Z-2.000000 I-2.512941 J1.648354
G03 X98.481503 Y66.785681 Z-2.000000 I1.602123 J-2.540082
G03 X98.464176 Y66.634383 Z-2.000000 I0.089212 J-0.086858
G03 X98.618035 Y66.530120 Z-2.000000 I0.190226 J0.115060
G03 X99.501190 Y66.453650 Z-2.000000 I0.931086 J5.615088
G02 X100.184825 Y66.349929 Z-2.000000 I-0.020843 J-2.442175
G02 X100.516949 Y66.160941 Z-2.000000 I-0.247325 J-0.820976
G02 X100.667088 Y65.864583 Z-2.000000 I-0.318823 J-0.347731
G02 X100.576810 Y65.467380 Z-2.000000 I-0.620080 J-0.067927
G02 X99.839830 Y64.862109 Z-2.000000 I-1.260379 J0.783332
G02 X98.921830 Y64.843570 Z-2.000000 I-0.485183 J1.287211
G02 X98.556909 Y65.128596 Z-2.000000 I0.216590 J0.653422
G02 X98.148678 Y65.987268 Z-2.000000 I3.329538 J2.109310
G02 X97.901113 Y66.941700 Z-2.000000 I6.772002 J2.265878
G02 X97.743635 Y68.103730 Z-2.000000 I11.532112 J2.154510
G02 X97.706056 Y69.277240 Z-2.000000 I11.107391 J0.943050
G02 X97.795815 Y70.143333 Z-2.000000 I5.276103 J-0.109101
G02 X98.072452 Y70.873741 Z-2.000000 I2.189646 J-0.411722
G02 X98.394330 Y71.056450 Z-2.000000 I0.321878 J-0.192172
G03 X98.981771 Y71.288932 Z-2.000000 I-0.000000 J0.858419
G03 X99.214250 Y71.825940 Z-2.000000 I-0.503981 J0.537008
G03 X98.928714 Y72.309897 Z-2.000000 I-0.552898 J-0.000000
G03 X97.821390 Y72.595430 Z-2.000000 I-1.107324 J-2.004384
G03 X97.232596 Y72.402915 Z-2.000000 I-0.000000 J-0.996649
G03 X96.740153 Y71.796044 Z-2.000000 I0.907894 J-1.239939
G03 X96.487935 Y70.961245 Z-2.000000 I3.037623 J-1.373256
G03 X96.325530 Y69.286620 Z-2.000000 I12.672820 J-2.074197
G02 X96.192685 Y65.979187 Z-2.000000 I-183.860300 J5.728459
G02 X95.911290 Y60.865630 Z-2.000000 I-438.506865 J21.566187
G03 X95.792972 Y57.437006 Z-2.000000 I65.079051 J-3.962166
G03 X95.976509 Y56.440025 Z-2.000000 I2.680433 J-0.021935
G03 X96.254079 Y56.025723 Z-2.000000 I1.073946 J0.419379
G03 X96.651795 Y55.775404 Z-2.000000 I0.813869 J0.851995
G03 X97.144158 Y55.649985 Z-2.000000 I0.805964 J2.134847
G03 X97.984250 Y55.557210 Z-2.000000 I2.083667 J15.017977
G03 X99.423354 Y55.521415 Z-2.000000 I1.031829 J12.537056
G03 X99.724105 Y55.648696 Z-2.000000 I-0.014696 J0.453688
G03 X99.767126 Y55.906841 Z-2.000000 I-0.152815 J0.158124
G03 X99.213360 Y56.745010 Z-2.000000 I-4.014814 J-2.050512
G01 X99.213390 Y56.745010 Z-2.000000
G00 Z4.000000

(End cutting path id: path323)


(Start cutting path id: path323)
(Change tool to Cylindrical cutter)

G00 Z4.000000
G00 X98.285700 Y62.745970

G01 Z-1.000000 F100.0(Penetrate)
G02 X98.556907 Y63.398138 Z-1.000000 I0.919735 J-0.000000 F400.000000
G02 X99.214270 Y63.669350 Z-1.000000 I0.657363 J-0.661053
G02 X99.871629 Y63.398143 Z-1.000000 I0.000000 J-0.932265
G02 X100.142840 Y62.745970 Z-1.000000 I-0.648524 J-0.652173
G02 X99.871625 Y62.093787 Z-1.000000 I-0.919752 J0.000000
G02 X99.214270 Y61.822580 Z-1.000000 I-0.657355 J0.661051
G02 X98.556910 Y62.093791 Z-1.000000 I-0.000000 J0.932258
G02 X98.285700 Y62.745970 Z-1.000000 I0.648542 J0.652179
G01 X98.285700 Y62.745970 Z-1.000000
G00 Z4.000000

(End cutting path id: path323)


(Start cutting path id: path323)
(Change tool to Cylindrical cutter)

G00 Z4.000000
G00 X98.285700 Y62.745970

G01 Z-2.000000 F100.0(Penetrate)
G02 X98.556907 Y63.398138 Z-2.000000 I0.919735 J-0.000000 F400.000000
G02 X99.214270 Y63.669350 Z-2.000000 I0.657363 J-0.661053
G02 X99.871629 Y63.398143 Z-2.000000 I0.000000 J-0.932265
G02 X100.142840 Y62.745970 Z-2.000000 I-0.648524 J-0.652173
G02 X99.871625 Y62.093787 Z-2.000000 I-0.919752 J0.000000
G02 X99.214270 Y61.822580 Z-2.000000 I-0.657355 J0.661051
G02 X98.556910 Y62.093791 Z-2.000000 I-0.000000 J0.932258
G02 X98.285700 Y62.745970 Z-2.000000 I0.648542 J0.652179
G01 X98.285700 Y62.745970 Z-2.000000
G00 Z4.000000

(End cutting path id: path323)


(Start cutting path id: path323)
(Change tool to Cylindrical cutter)

G00 Z4.000000
G00 X93.642840 Y65.570630

G01 Z-1.000000 F100.0(Penetrate)
G03 X93.560157 Y69.187366 Z-1.000000 I-79.143237 J0.000000 F400.000000
G03 X93.399516 Y70.943959 Z-1.000000 I-19.377880 J-0.886468
G03 X92.986478 Y72.345939 Z-1.000000 I-4.850121 J-0.667066
G03 X92.699120 Y72.432220 Z-1.000000 I-0.182133 J-0.084930
G03 X92.193568 Y71.748802 Z-1.000000 I0.595787 J-0.969426
G03 X92.314780 Y70.952200 Z-1.000000 I0.989486 J-0.256961
G02 X92.438494 Y70.080041 Z-1.000000 I-0.927471 J-0.576414
G02 X91.633500 Y68.530290 Z-1.000000 I-4.132671 J1.162705
G03 X90.915197 Y67.592446 Z-1.000000 I15.090274 J-12.301763
G03 X90.865330 Y67.439984 Z-1.000000 I0.215400 J-0.154839
G01 X90.934296 Y67.393971 Z-1.000000
G03 X91.626500 Y67.746560 Z-1.000000 I-2.239547 J5.252447
G02 X91.990842 Y67.920267 Z-1.000000 I1.099717 J-1.837652
G02 X92.204284 Y67.951638 Z-1.000000 I0.182317 J-0.498663
G02 X92.383908 Y67.880118 Z-1.000000 I-0.018001 J-0.306536
G02 X92.533960 Y67.671300 Z-1.000000 I-0.336408 J-0.400056
G02 X92.638587 Y67.122160 Z-1.000000 I-1.404466 J-0.552128
G02 X92.555070 Y65.384500 Z-1.000000 I-17.401720 J-0.034460
G02 X92.358263 Y64.072706 Z-1.000000 I-12.977526 J1.276343
G02 X92.084499 Y63.012203 Z-1.000000 I-10.164699 J2.058385
G02 X91.670295 Y61.998447 Z-1.000000 I-6.342768 J2.000052
G02 X91.381300 Y61.662110 Z-1.000000 I-0.833101 J0.423510
G03 X91.154612 Y61.080341 Z-1.000000 I0.332750 J-0.464706
G03 X91.662577 Y59.693329 Z-1.000000 I5.010365 J1.048423
G03 X92.559025 Y58.447439 Z-1.000000 I5.293559 J2.863389
G03 X93.292400 Y58.129030 Z-1.000000 I0.733375 J0.685369
G03 X93.376161 Y58.204211 Z-1.000000 I0.000000 J0.084250
G03 X93.540006 Y60.315000 Z-1.000000 I-34.635012 J3.750221
G03 X93.610572 Y62.403551 Z-1.000000 I-78.460379 J3.696400
G03 X93.642990 Y65.570630 Z-1.000000 I-154.687259 J3.167079
G01 X93.642840 Y65.570630 Z-1.000000
G00 Z4.000000

(End cutting path id: path323)


(Start cutting path id: path323)
(Change tool to Cylindrical cutter)

G00 Z4.000000
G00 X93.642840 Y65.570630

G01 Z-2.000000 F100.0(Penetrate)
G03 X93.560157 Y69.187366 Z-2.000000 I-79.143237 J0.000000 F400.000000
G03 X93.399516 Y70.943959 Z-2.000000 I-19.377880 J-0.886468
G03 X92.986478 Y72.345939 Z-2.000000 I-4.850121 J-0.667066
G03 X92.699120 Y72.432220 Z-2.000000 I-0.182133 J-0.084930
G03 X92.193568 Y71.748802 Z-2.000000 I0.595787 J-0.969426
G03 X92.314780 Y70.952200 Z-2.000000 I0.989486 J-0.256961
G02 X92.438494 Y70.080041 Z-2.000000 I-0.927471 J-0.576414
G02 X91.633500 Y68.530290 Z-2.000000 I-4.132671 J1.162705
G03 X90.915197 Y67.592446 Z-2.000000 I15.090274 J-12.301763
G03 X90.865330 Y67.439984 Z-2.000000 I0.215400 J-0.154839
G01 X90.934296 Y67.393971 Z-2.000000
G03 X91.626500 Y67.746560 Z-2.000000 I-2.239547 J5.252447
G02 X91.990842 Y67.920267 Z-2.000000 I1.099717 J-1.837652
G02 X92.204284 Y67.951638 Z-2.000000 I0.182317 J-0.498663
G02 X92.383908 Y67.880118 Z-2.000000 I-0.018001 J-0.306536
G02 X92.533960 Y67.671300 Z-2.000000 I-0.336408 J-0.400056
G02 X92.638587 Y67.122160 Z-2.000000 I-1.404466 J-0.552128
G02 X92.555070 Y65.384500 Z-2.000000 I-17.401720 J-0.034460
G02 X92.358263 Y64.072706 Z-2.000000 I-12.977526 J1.276343
G02 X92.084499 Y63.012203 Z-2.000000 I-10.164699 J2.058385
G02 X91.670295 Y61.998447 Z-2.000000 I-6.342768 J2.000052
G02 X91.381300 Y61.662110 Z-2.000000 I-0.833101 J0.423510
G03 X91.154612 Y61.080341 Z-2.000000 I0.332750 J-0.464706
G03 X91.662577 Y59.693329 Z-2.000000 I5.010365 J1.048423
G03 X92.559025 Y58.447439 Z-2.000000 I5.293559 J2.863389
G03 X93.292400 Y58.129030 Z-2.000000 I0.733375 J0.685369
G03 X93.376161 Y58.204211 Z-2.000000 I0.000000 J0.084250
G03 X93.540006 Y60.315000 Z-2.000000 I-34.635012 J3.750221
G03 X93.610572 Y62.403551 Z-2.000000 I-78.460379 J3.696400
G03 X93.642990 Y65.570630 Z-2.000000 I-154.687259 J3.167079
G01 X93.642840 Y65.570630 Z-2.000000
G00 Z4.000000

(End cutting path id: path323)


(Start cutting path id: path323)
(Change tool to Cylindrical cutter)

G00 Z4.000000
G00 X90.212860 Y63.340220

G01 Z-1.000000 F100.0(Penetrate)
G02 X89.593509 Y64.017686 Z-1.000000 I0.399205 J0.986805 F400.000000
G02 X89.604030 Y65.344940 Z-1.000000 I2.129665 J0.646787
G03 X89.872740 Y66.303034 Z-1.000000 I-12.717319 J4.083468
G03 X89.834153 Y66.373158 Z-1.000000 I-0.057752 J0.013899
G03 X89.747267 Y66.348664 Z-1.000000 I-0.025667 J-0.075303
G03 X89.101800 Y65.516130 Z-1.000000 I12.190357 J-10.117708
G03 X88.225367 Y63.997510 Z-1.000000 I6.920602 J-5.006267
G03 X88.163394 Y63.390935 Z-1.000000 I0.887921 J-0.397171
G03 X88.504608 Y63.001460 Z-1.000000 I0.524991 J0.115734
G03 X89.696410 Y62.818870 Z-1.000000 I1.053652 J2.896530
G03 X90.352532 Y62.909360 Z-1.000000 I-0.161195 J3.592727
G03 X90.518429 Y63.002089 Z-1.000000 I-0.078031 J0.334366
G03 X90.522440 Y63.118390 Z-1.000000 I-0.060892 J0.060320
G03 X90.212860 Y63.340220 Z-1.000000 I-0.613327 J-0.529007
G01 X90.212860 Y63.340220 Z-1.000000
G00 Z4.000000

(End cutting path id: path323)


(Start cutting path id: path323)
(Change tool to Cylindrical cutter)

G00 Z4.000000
G00 X90.212860 Y63.340220

G01 Z-2.000000 F100.0(Penetrate)
G02 X89.593509 Y64.017686 Z-2.000000 I0.399205 J0.986805 F400.000000
G02 X89.604030 Y65.344940 Z-2.000000 I2.129665 J0.646787
G03 X89.872740 Y66.303034 Z-2.000000 I-12.717319 J4.083468
G03 X89.834153 Y66.373158 Z-2.000000 I-0.057752 J0.013899
G03 X89.747267 Y66.348664 Z-2.000000 I-0.025667 J-0.075303
G03 X89.101800 Y65.516130 Z-2.000000 I12.190357 J-10.117708
G03 X88.225367 Y63.997510 Z-2.000000 I6.920602 J-5.006267
G03 X88.163394 Y63.390935 Z-2.000000 I0.887921 J-0.397171
G03 X88.504608 Y63.001460 Z-2.000000 I0.524991 J0.115734
G03 X89.696410 Y62.818870 Z-2.000000 I1.053652 J2.896530
G03 X90.352532 Y62.909360 Z-2.000000 I-0.161195 J3.592727
G03 X90.518429 Y63.002089 Z-2.000000 I-0.078031 J0.334366
G03 X90.522440 Y63.118390 Z-2.000000 I-0.060892 J0.060320
G03 X90.212860 Y63.340220 Z-2.000000 I-0.613327 J-0.529007
G01 X90.212860 Y63.340220 Z-2.000000
G00 Z4.000000

(End cutting path id: path323)


(Start cutting path id: path323)
(Change tool to Cylindrical cutter)

G00 Z4.000000
G00 X86.534700 Y65.094260

G01 Z-1.000000 F100.0(Penetrate)
G03 X85.891099 Y66.079265 Z-1.000000 I-2.627057 J-1.013748 F400.000000
G03 X85.542290 Y66.079080 Z-1.000000 I-0.174312 J-0.175656
G03 X85.377852 Y65.606565 Z-1.000000 I0.402775 J-0.405038
G03 X85.711800 Y64.654170 Z-1.000000 I2.308139 J0.274582
G03 X86.483270 Y63.737584 Z-1.000000 I3.556169 J2.210192
G03 X86.702062 Y63.711591 Z-1.000000 I0.128017 J0.143743
G03 X86.809611 Y63.910432 Z-1.000000 I-0.096695 J0.180805
G03 X86.534700 Y65.094260 Z-1.000000 I-4.334618 J-0.382758
G01 X86.534700 Y65.094260 Z-1.000000
G00 Z4.000000

(End cutting path id: path323)


(Start cutting path id: path323)
(Change tool to Cylindrical cutter)

G00 Z4.000000
